
;FLAVOR:Marlin
;TIME:0
;Filament used: 0m
;Layer height: 0
;MINX:0
;MINY:0
;MINZ:0
;MAXX:220
;MAXY:220
;MAXZ:250

; Time to print!!!!!
; GCode created with FullControl - tell us what you're printing!
; info@fullcontrol.xyz or tag FullControlXYZ on Twitter/Instagram/LinkedIn/Reddit/TikTok 

G28 ; home axes
M140 S50 ; set bed temp and continue
M105
M104 S200 ; set hotend temp and continue
M190 S50 ; set bed temp and wait
M105
M109 S200  ; set hotend temp and wait
G90 ; absolute coordinates
G21 ; set units to millimeters
M83 ; relative extrusion
M106 S255 ; set fan speed
M220 S100 ; set speed factor override percentage
M221 S100 ; set extrude factor override percentage
;-----
; END OF STARTING PROCEDURE
;-----

;-----
; START OF PRIMER PROCEDURE
;-----
G0 F8000 X0.1 Y20 Z0.3
G1 F1500 Y200 E17.960473
G0 F8000 X0.4
G1 F1500 Y20 E17.960473
G0 F8000 X5
G1 E-2 F2700 ; retract before travel to suppress ooze
G0 X110 Y91 Z0.192
G1 E2 F2700 ; unretract
;-----
; END OF PRIMER PROCEDURE
;-----

G1 F250 X111.119648 Y92.025282 E0.151483
G1 X112.367145 Y91.072762 E0.156612
G1 X113.384844 Y92.074336 E0.142475
G1 X114.813269 Y91.057997 E0.174925
G1 X115.811861 Y91.921788 E0.131745
G1 X117.499361 Y90.850249 E0.199457
G1 X118.537052 Y91.650857 E0.130776
G1 X120.479804 Y90.710527 E0.215362
G1 X121.495485 Y91.659846 E0.13872
G1 X123.54771 Y91.107125 E0.212069
G1 X124.349904 Y92.410245 E0.152688
G1 X126.267379 Y92.415769 E0.191327
G1 X126.626605 Y94.131598 E0.174918
G1 X128.193317 Y94.680342 E0.165639
G1 X127.980363 Y96.678394 E0.200496
G1 X129.133815 Y97.588453 E0.146601
G1 X128.407939 Y99.625144 E0.215743
G1 X129.273498 Y100.665564 E0.135042
G1 X128.254299 Y102.521841 E0.211302
G1 X129.058597 Y103.544249 E0.129799
G1 X127.994186 Y105.128447 E0.190438
G1 X128.911281 Y106.12352 E0.135026
G1 X127.928395 Y107.474009 E0.166663
G1 X128.961109 Y108.522563 E0.146849
G1 X127.997974 Y109.720065 E0.153339
G1 X128.983364 Y110.886356 E0.152348
G1 X127.94354 Y111.961215 E0.149223
G1 X128.908729 Y113.266778 E0.162004
G1 X127.95519 Y114.266383 E0.137843
G1 X129.003917 Y115.784953 E0.184145
G1 X128.18237 Y116.796319 E0.130014
G1 X129.23363 Y118.58727 E0.207213
G1 X128.405322 Y119.631792 E0.133016
G1 X129.229006 Y121.640051 E0.216585
G1 X128.16555 Y122.603053 E0.143153
G1 X128.520022 Y124.635068 E0.205817
G1 X127.058482 Y125.295594 E0.160035
G1 X126.836812 Y127.100723 E0.181469
G1 X124.99107 Y127.251274 E0.18478
G1 X124.279699 Y128.65969 E0.157441
G1 X122.236851 Y128.236893 E0.208156
G1 X121.252861 Y129.259256 E0.141585
G1 X119.263639 Y128.392559 E0.216507
G1 X118.219958 Y129.207925 E0.132151
G1 X116.463057 Y128.146404 E0.204818
G1 X115.456681 Y128.980182 E0.130403
G1 X113.969396 Y127.941465 E0.181011
G1 X112.965269 Y128.912292 E0.139363
G1 X111.680203 Y127.953489 E0.159982
G1 X110.590935 Y128.99201 E0.15017
G1 X109.440165 Y127.992494 E0.152089
G1 X108.226618 Y128.949139 E0.154188
G1 X107.189629 Y127.924361 E0.145471
G1 X105.814586 Y128.917854 E0.169267
G1 X104.819621 Y128.019111 E0.133784
G1 X103.201426 Y129.088438 E0.193533
G1 X102.173476 Y128.288572 E0.129962
G1 X100.286533 Y129.285674 E0.21295
G1 X99.251621 Y128.395835 E0.136187
G1 X97.205963 Y129.067281 E0.214831
G1 X96.328033 Y127.865549 E0.148499
G1 X94.353001 Y128.006096 E0.197568
G1 X93.864775 Y126.388139 E0.16863
G1 X92.196987 Y125.963182 E0.17173
G1 X92.264572 Y124.015059 E0.194501
G1 X91.012828 Y123.173085 E0.150526
G1 X91.626465 Y121.122201 E0.213602
G1 X90.708666 Y120.095455 E0.137413
G1 X91.679493 Y118.179586 E0.214309
G1 X90.880928 Y117.146445 E0.130292
G1 X91.952741 Y115.493739 E0.19655
G1 X91.071898 Y114.497559 E0.132684
G1 X92.076673 Y113.096534 E0.172029
G1 X91.062381 Y112.069867 E0.144003
G1 X92.015548 Y110.839716 E0.15528
G1 X91.002147 Y109.704513 E0.151839
G1 X92.035869 Y108.600247 E0.150929
G1 X91.081385 Y107.334494 E0.158182
G1 X92.06835 Y106.324327 E0.140918
G1 X91.040563 Y104.867125 E0.177928
G1 X91.888541 Y103.865074 E0.130981
G1 X90.820341 Y102.142752 E0.202223
G1 X91.626505 Y101.101448 E0.1314
G1 X90.720898 Y99.13415 E0.216097
G1 X91.705138 Y98.132657 E0.140109
G1 X91.21614 Y96.083085 E0.210247
G1 X92.571616 Y95.324452 E0.154992
G1 X92.649986 Y93.441178 E0.188077
G1 X94.411707 Y93.149828 E0.178173
G1 X95.01796 Y91.635388 E0.16277
G1 X97.035032 Y91.919783 E0.203255
G1 X97.973424 Y90.812531 E0.144822
G1 X99.997582 Y91.58922 E0.216329
G1 X101.041113 Y90.744184 E0.133983
G1 X102.86529 Y91.781393 E0.209383
G1 X103.882082 Y90.969775 E0.129814
G1 X105.43301 Y92.027196 E0.187298
G1 X106.429608 Y91.0917 E0.136388
G1 X107.756954 Y92.065032 E0.164236
G1 X108.818183 Y91.027216 E0.148108
G1 X110 Y92 E0.152732
G1 X111.057478 Y93.023347 E0.146833
G1 X112.243046 Y92.065032 E0.15211
G1 X113.199296 Y93.056971 E0.137478
G1 X114.56699 Y92.027196 E0.170826
G1 X115.505804 Y92.873801 E0.126139
G1 X117.13471 Y91.781393 E0.195699
G1 X118.115217 Y92.557529 E0.124777
G1 X120.002418 Y91.58922 E0.211646
G1 X120.964394 Y92.507161 E0.132675
G1 X122.964968 Y91.919783 E0.208044
G1 X123.717767 Y93.185102 E0.146909
G1 X125.588293 Y93.149828 E0.186675
G1 X125.903196 Y94.822018 E0.169785
G1 X127.428384 Y95.324452 E0.160229
G1 X127.176866 Y97.273703 E0.19611
G1 X128.294862 Y98.132657 E0.140677
G1 X127.536777 Y100.116139 E0.211875
G1 X128.373495 Y101.101448 E0.128981
G1 X127.328938 Y102.900929 E0.207611
G1 X128.111459 Y103.865074 E0.123901
G1 X127.028934 Y105.389769 E0.18658
G1 X127.93165 Y106.324327 E0.129649
G1 X126.938175 Y107.613525 E0.162401
G1 X127.964131 Y108.600247 E0.142032
G1 X126.998094 Y109.735617 E0.148746
G1 X127.984452 Y110.839716 E0.147727
G1 X126.94946 Y111.852563 E0.144495
G1 X127.923327 Y113.096534 E0.157637
G1 X126.982278 Y114.035207 E0.132625
G1 X128.047259 Y115.493739 E0.1802
G1 X127.245667 Y116.446192 E0.124214
G1 X128.320507 Y118.179586 E0.203511
G1 X127.519311 Y119.168128 E0.126966
G1 X128.373535 Y121.122201 E0.212794
G1 X127.343927 Y122.03302 E0.137164
G1 X127.735428 Y124.015059 E0.20159
G1 X126.313951 Y124.628006 E0.15446
G1 X126.135225 Y126.388139 E0.17653
G1 X124.335142 Y126.496451 E0.179938
G1 X123.671967 Y127.865549 E0.151792
G1 X121.679665 Y127.406505 E0.204001
G1 X120.748379 Y128.395835 E0.135572
G1 X118.81381 Y127.499444 E0.212747
G1 X117.826524 Y128.288572 E0.126113
G1 X116.12754 Y127.204369 E0.201102
G1 X115.180379 Y128.019111 E0.124662
G1 X113.753378 Y126.965075 E0.177017
G1 X112.810371 Y127.924361 E0.134222
G1 X111.587024 Y126.95784 E0.155566
G1 X110.559835 Y127.992494 E0.145475
G1 X109.471265 Y126.992978 E0.14746
G1 X108.319797 Y127.953489 E0.149619
G1 X107.344527 Y126.936431 E0.1406
G1 X106.030604 Y127.941465 E0.16506
G1 X105.095923 Y127.05804 E0.128328
G1 X103.536943 Y128.146404 E0.189713
G1 X102.56691 Y127.369219 E0.124024
G1 X100.736361 Y128.392559 E0.209257
G1 X99.756104 Y127.532413 E0.130127
G1 X97.763149 Y128.236893 E0.210916
G1 X96.935766 Y127.071407 E0.142617
G1 X95.00893 Y127.251274 E0.193096
G1 X94.566362 Y125.675555 E0.16331
G1 X92.941518 Y125.295594 E0.166501
G1 X93.049166 Y123.395049 E0.189941
G1 X91.83445 Y122.603053 E0.144692
G1 X92.481937 Y120.604352 E0.209635
G1 X91.594678 Y119.631792 E0.131358
G1 X92.592616 Y117.771903 E0.210607
G1 X91.81763 Y116.796319 E0.12432
G1 X92.909398 Y115.202524 E0.192763
G1 X92.04481 Y114.266383 E0.127151
G1 X93.062075 Y112.926291 E0.167877
G1 X92.05646 Y111.961215 E0.139072
G1 X93.01446 Y110.793075 E0.150741
G1 X92.002026 Y109.720065 E0.147201
G1 X93.032847 Y108.677931 E0.14626
G1 X92.071605 Y107.474009 E0.153721
G1 X93.047981 Y106.525134 E0.135851
G1 X92.005814 Y105.128447 E0.173883
G1 X92.83568 Y104.1859 E0.125306
G1 X91.745701 Y102.521841 E0.198489
G1 X92.526507 Y101.537332 E0.125379
G1 X91.592061 Y99.625144 E0.212362
G1 X92.54409 Y98.676861 E0.134078
G1 X92.019637 Y96.678394 E0.20616
G1 X93.336548 Y95.968563 E0.149275
G1 X93.373395 Y94.131598 E0.18333
G1 X95.090793 Y93.883886 E0.173136
G1 X95.650096 Y92.410245 E0.157275
G1 X97.617773 Y92.732441 E0.19895
G1 X98.504515 Y91.659846 E0.138862
G1 X100.474969 Y92.467914 E0.212503
G1 X101.462948 Y91.650857 E0.127925
G1 X103.229942 Y92.712537 E0.205689
G1 X104.188139 Y91.921788 E0.123962
G1 X105.679289 Y92.996395 E0.183398
G1 X106.615156 Y92.074336 E0.13109
G1 X107.881053 Y93.057301 E0.15992
G1 X108.880352 Y92.025282 E0.143339
G1 X110 Y93 E0.148122
G1 X110.995308 Y94.021413 E0.142303
G1 X112.118947 Y93.057301 E0.147731
G1 X113.013748 Y94.039606 E0.132584
G1 X114.320711 Y92.996395 E0.166858
G1 X115.199746 Y93.825814 E0.120592
G1 X116.770058 Y92.712537 E0.192068
G1 X117.693382 Y93.464202 E0.118798
G1 X119.525031 Y92.467914 E0.208049
G1 X120.433302 Y93.354475 E0.126644
G1 X122.382227 Y92.732441 E0.204129
G1 X123.085631 Y93.959959 E0.141166
G1 X124.909207 Y93.883886 E0.182115
G1 X125.179787 Y95.512438 E0.164725
G1 X126.663452 Y95.968563 E0.154879
G1 X126.373369 Y97.869012 E0.191824
G1 X127.45591 Y98.676861 E0.134778
G1 X126.665614 Y100.607133 E0.208121
G1 X127.473493 Y101.537332 E0.122934
G1 X126.403578 Y103.280017 E0.204042
G1 X127.16432 Y104.1859 E0.118034
G1 X126.063682 Y105.651091 E0.182851
G1 X126.952019 Y106.525134 E0.12435
G1 X125.947955 Y107.75304 E0.158267
G1 X126.967153 Y108.677931 E0.137327
G1 X125.998215 Y109.751169 E0.144274
G1 X126.98554 Y110.793075 E0.143225
G1 X125.95538 Y111.743911 E0.139882
G1 X126.937925 Y112.926291 E0.153397
G1 X126.009366 Y113.80403 E0.127495
G1 X127.090602 Y115.202524 E0.176384
G1 X126.308965 Y116.096066 E0.118456
G1 X127.407384 Y117.771903 E0.199933
G1 X126.633299 Y118.704464 E0.120931
G1 X127.518063 Y120.604352 E0.20912
G1 X126.522305 Y121.462988 E0.131195
G1 X126.950834 Y123.395049 E0.197467
G1 X125.569421 Y123.960418 E0.148935
G1 X125.433638 Y125.675555 E0.171673
G1 X123.679213 Y125.741628 E0.175181
G1 X123.064234 Y127.071407 E0.146188
G1 X121.12248 Y126.576117 E0.199953
G1 X120.243896 Y127.532413 E0.129577
G1 X118.363982 Y126.606329 E0.209104
G1 X117.43309 Y127.369219 E0.120092
G1 X115.792024 Y126.262335 E0.197512
G1 X114.904077 Y127.05804 E0.118969
G1 X113.53736 Y125.988686 E0.173154
G1 X112.655473 Y126.936431 E0.129174
G1 X111.493844 Y125.962191 E0.151276
G1 X110.528735 Y126.992978 E0.140897
G1 X109.502365 Y125.993461 E0.14295
G1 X108.412976 Y126.95784 E0.145173
G1 X107.499425 Y125.9485 E0.135839
G1 X106.246622 Y126.965075 E0.160982
G1 X105.372225 Y126.096969 E0.122944
G1 X103.87246 Y127.204369 E0.186021
G1 X102.960343 Y126.449866 E0.118114
G1 X101.18619 Y127.499444 E0.205684
G1 X100.260587 Y126.668991 E0.124081
G1 X98.320335 Y127.406505 E0.207114
G1 X97.543499 Y126.277265 E0.136763
G1 X95.664858 Y126.496451 E0.188723
G1 X95.267949 Y124.962971 E0.158053
G1 X93.686049 Y124.628006 E0.161342
G1 X93.833761 Y122.77504 E0.185476
G1 X92.656073 Y122.03302 E0.13889
G1 X93.337409 Y120.086502 E0.205779
G1 X92.480689 Y119.168128 E0.125318
G1 X93.50574 Y117.364219 E0.207025
G1 X92.754333 Y116.446192 E0.118373
G1 X93.866056 Y114.911309 E0.189104
G1 X93.017722 Y114.035207 E0.121684
G1 X94.047477 Y112.756047 E0.163854
G1 X93.05054 Y111.852563 E0.134247
G1 X94.013371 Y110.746435 E0.146326
G1 X93.001906 Y109.735617 E0.142683
G1 X94.029825 Y108.755615 E0.14171
G1 X93.061825 Y107.613525 E0.149384
G1 X94.027612 Y106.725942 E0.130882
G1 X92.971066 Y105.389769 E0.169968
G1 X93.782818 Y104.506726 E0.119683
G1 X92.671062 Y102.900929 E0.194881
G1 X93.42651 Y101.973217 E0.119376
G1 X92.463223 Y100.116139 E0.208745
G1 X93.383043 Y99.221065 E0.128062
G1 X92.823134 Y97.273703 E0.202181
G1 X94.101481 Y96.612673 E0.143598
G1 X94.096804 Y94.822018 E0.178673
G1 X95.769879 Y94.617945 E0.168177
G1 X96.282233 Y93.185102 E0.151835
G1 X98.200514 Y93.545099 E0.194748
G1 X99.035606 Y92.507161 E0.132925
G1 X100.952355 Y93.346607 E0.208791
G1 X101.884783 Y92.557529 E0.121882
G1 X103.594593 Y93.643681 E0.202118
G1 X104.494196 Y92.873801 E0.118146
G1 X105.925567 Y93.965594 E0.179628
G1 X106.800704 Y93.056971 E0.125876
G1 X108.005151 Y94.049571 E0.155733
G1 X108.942522 Y93.023347 E0.138684
G1 F250 X110 Y94 E0.143632
G1 X110.9337 Y95.019514 Z0.194376 E0.138489
G1 X111.996091 Y94.04935 Z0.196752 E0.144692
G1 X112.830023 Y95.021826 Z0.199129 E0.129345
G1 X114.077112 Y93.96512 Z0.201505 E0.165683
G1 X114.896999 Y94.777324 Z0.203881 E0.117435
G1 X116.409765 Y93.643384 Z0.206257 E0.193125
G1 X117.276592 Y94.370752 Z0.208634 E0.116039
G1 X119.053885 Y93.347025 Z0.21101 E0.211138
G1 X119.909126 Y94.202601 Z0.213386 E0.12501
G1 X121.807611 Y93.546793 Z0.215762 E0.208353
G1 X122.462147 Y94.73706 Z0.218139 E0.141443
G1 X124.239826 Y94.621333 Z0.220515 E0.186201
G1 X124.46634 Y96.206811 Z0.222891 E0.168034
G1 X125.909254 Y96.617893 Z0.225267 E0.158004
G1 X125.580555 Y98.469967 Z0.227644 E0.198838
G1 X126.628116 Y99.227987 Z0.23002 E0.137197
G1 X125.805323 Y101.105262 Z0.232396 E0.218287
G1 X126.584614 Y101.981637 Z0.234772 E0.125359
G1 X125.488947 Y103.667586 Z0.237149 E0.215725
G1 X126.228014 Y104.516612 Z0.239525 E0.121213
G1 X125.10885 Y105.922351 Z0.241901 E0.194201
G1 X125.982762 Y106.737544 Z0.244277 E0.129638
G1 X124.967678 Y107.90431 Z0.246653 E0.168369
G1 X125.979848 Y108.76932 Z0.24903 E0.145479
G1 X125.007506 Y109.780642 Z0.251406 E0.153845
G1 X125.995215 Y110.762456 Z0.253782 E0.15327
G1 X124.969284 Y111.65146 Z0.256158 E0.149938
G1 X125.959552 Y112.774511 Z0.258535 E0.165967
G1 X125.042728 Y113.591621 Z0.260911 E0.136615
G1 X126.138764 Y114.932609 Z0.263287 E0.193344
G1 X125.376061 Y115.767727 Z0.265663 E0.126706
G1 X126.495977 Y117.388724 Z0.26804 E0.221506
G1 X125.747661 Y118.26582 Z0.270416 E0.130076
G1 X126.660255 Y120.114117 Z0.272792 E0.233375
G1 X125.696799 Y120.920788 Z0.275168 E0.142761
G1 X126.159228 Y122.804952 Z0.277545 E0.221182
G1 X124.816436 Y123.322357 Z0.279921 E0.164627
G1 X124.720403 Y124.99379 Z0.282297 E0.192192
G1 X123.010654 Y125.016543 Z0.284673 E0.196967
G1 X122.440916 Y126.307493 Z0.28705 E0.163103
G1 X120.549388 Y125.774354 Z0.289426 E0.227932
G1 X119.720864 Y126.697526 Z0.291802 E0.14436
G1 X117.895851 Y125.739959 Z0.294178 E0.240665
G1 X117.018813 Y126.476218 Z0.296554 E0.13417
G1 X115.436147 Y125.344961 Z0.298931 E0.228707
G1 X114.604632 Y126.121074 Z0.301307 E0.134171
G1 X113.298575 Y125.034894 Z0.303683 E0.201047
G1 X112.474568 Y125.970309 Z0.306059 E0.148031
G1 X111.374816 Y124.98693 Z0.308436 E0.175772
G1 X110.4682 Y126.012647 Z0.310812 E0.163644
G1 X109.504192 Y125.011679 Z0.313188 E0.166672
G1 X108.473242 Y125.978199 Z0.315564 E0.170045
G1 X107.621569 Y124.97505 Z0.317941 E0.158864
G1 X106.425978 Y126.000801 Z0.320317 E0.190801
G1 X105.611729 Y125.146257 Z0.322693 E0.143431
G1 X104.166932 Y126.269468 Z0.325069 E0.2231
G1 X103.312352 Y125.535479 Z0.327446 E0.137779
G1 X101.590331 Y126.60709 Z0.329822 E0.248864
G1 X100.719183 Y125.80378 Z0.332198 E0.145867
G1 X98.827965 Y126.569324 Z0.334574 E0.251956
G1 X98.102217 Y125.47375 Z0.33695 E0.162805
G1 X96.269274 Y125.726953 Z0.339327 E0.229963
G1 X95.919655 Y124.233673 Z0.341703 E0.191211
G1 X94.379596 Y123.938691 Z0.344079 E0.196119
G1 X94.570013 Y122.132291 Z0.346455 E0.227899
G1 X93.429425 Y121.435867 Z0.348832 E0.168201
G1 X94.147798 Y119.541637 Z0.351208 E0.255781
G1 X93.322386 Y118.673587 Z0.353584 E0.151709
G1 X94.377724 Y116.92651 Z0.35596 E0.259314
G1 X93.650952 Y116.062216 Z0.358337 E0.143914
G1 X94.785459 Y114.587237 Z0.360713 E0.237883
G1 X93.954629 Y113.766876 Z0.363089 E0.149724
G1 X94.999367 Y112.54935 Z0.365465 E0.20636
G1 X94.012751 Y111.702542 Z0.367842 E0.167755
G1 X94.982782 Y110.658877 Z0.370218 E0.184402
G1 X93.974569 Y109.705089 Z0.372594 E0.180165
G1 X95.001957 Y108.787811 Z0.37497 E0.179335
G1 X94.030234 Y107.702339 Z0.377347 E0.190274
G1 X94.987904 Y106.876444 Z0.379723 E0.165663
G1 X93.92099 Y105.59516 Z0.382099 E0.219078
G1 X94.717476 Y104.771557 Z0.384475 E0.150996
G1 X93.589209 Y103.218094 Z0.386851 E0.253788
G1 X94.322696 Y102.34696 Z0.389228 E0.150983
G1 X93.337097 Y100.539421 Z0.391604 E0.273767
G1 X94.228429 Y99.697916 Z0.39398 E0.163486
G1 X93.640382 Y97.797337 Z0.396356 E0.266122
G1 X94.883556 Y97.186755 Z0.398733 E0.185815
G1 X94.844657 Y95.439959 Z0.401109 E0.235099
G1 X96.475673 Y95.282703 Z0.403485 E0.221127
