
;FLAVOR:Marlin
;TIME:0
;Filament used: 0m
;Layer height: 0
;MINX:0
;MINY:0
;MINZ:0
;MAXX:220
;MAXY:220
;MAXZ:250

; Time to print!!!!!
; GCode created with FullControl - tell us what you're printing!
; info@fullcontrol.xyz or tag FullControlXYZ on Twitter/Instagram/LinkedIn/Reddit/TikTok 

G28 ; home axes
M140 S50 ; set bed temp and continue
M105
M104 S200 ; set hotend temp and continue
M190 S50 ; set bed temp and wait
M105
M109 S200  ; set hotend temp and wait
G90 ; absolute coordinates
G21 ; set units to millimeters
M83 ; relative extrusion
M106 S255 ; set fan speed
M220 S100 ; set speed factor override percentage
M221 S100 ; set extrude factor override percentage
;-----
; END OF STARTING PROCEDURE
;-----

;-----
; START OF PRIMER PROCEDURE
;-----
G0 F8000 X0.1 Y20 Z0.3
G1 F1500 Y200 E17.960473
G0 F8000 X0.4
G1 F1500 Y20 E17.960473
G0 F8000 X5
G1 E-2 F2700 ; retract before travel to suppress ooze
G0 X110 Y73.992804 Z0.192
G1 E2 F2700 ; unretract
;-----
; END OF PRIMER PROCEDURE
;-----

G1 F250 X111.945409 Y78.768582 E0.514548
G1 X114.468706 Y74.269086 E0.51474
G1 X115.808956 Y79.23657 E0.513381
G1 X118.882788 Y75.04293 E0.518811
G1 X119.630267 Y80.044362 E0.504588
G1 X123.275379 Y76.101088 E0.535815
G1 X123.529809 Y80.919658 E0.481469
G1 X127.839533 Y77.163967 E0.5704
G1 X127.764679 Y81.657833 E0.448462
G1 X132.823377 Y78.1718 E0.613003
G1 X132.512103 Y82.405225 E0.423553
G1 X138.233668 Y79.480805 E0.641151
G1 X137.556453 Y83.70017 E0.426398
G1 X143.587663 Y81.717554 E0.633478
G1 X142.183247 Y86.155514 E0.464465
G1 X148.001364 Y85.349625 E0.586077
G1 X145.470974 Y90.008288 E0.528987
G1 X150.645879 Y90.314607 E0.517258
G1 X146.829696 Y94.912138 E0.596187
G1 X151.260888 Y96.023628 E0.455843
G1 X146.380949 Y100.150611 E0.637704
G1 X150.318042 Y101.735511 E0.423481
G1 X144.86699 Y105.087475 E0.638514
G1 X148.693835 Y106.985003 E0.426208
G1 X143.156227 Y109.484298 E0.606215
G1 X147.111813 Y111.732795 E0.454
G1 X141.736628 Y113.468789 E0.563616
G1 X145.785223 Y116.182455 E0.486322
G1 X140.566798 Y117.263063 E0.531743
G1 X144.484921 Y120.497502 E0.506952
G1 X139.319186 Y120.959107 E0.517493
G1 X142.879776 Y124.679887 E0.513864
G1 X137.724971 Y124.508909 E0.514631
G1 X140.803136 Y128.646313 E0.514554
G1 X135.710337 Y127.837541 E0.51453
G1 X138.25452 Y132.327556 E0.514939
G1 X133.316625 Y130.906997 E0.512689
G1 X135.324546 Y135.721499 E0.520498
G1 X130.678613 Y133.796327 E0.501797
G1 X132.190539 Y138.997011 E0.54041
G1 X127.965776 Y136.774856 E0.476305
G1 X128.973726 Y142.473505 E0.57744
G1 X125.186949 Y140.153038 E0.443145
G1 X125.555667 Y146.349591 E0.619388
G1 X122.086587 Y143.935657 E0.421702
G1 X121.602987 Y150.359115 E0.642749
G1 X118.312338 Y147.57134 E0.430331
G1 X116.850819 Y153.694072 E0.628093
G1 X113.752355 Y150.095079 E0.47386
G1 X111.411518 Y155.364667 E0.575345
G1 X108.735128 Y150.651634 E0.540804
G1 X105.808275 Y154.789878 E0.505755
G1 X103.879575 Y149.03567 E0.605551
G1 X100.66907 Y152.175322 E0.448066
G1 X99.699863 Y145.827364 E0.640742
G1 X96.331346 Y148.377644 E0.421575
G1 X96.299495 Y142.014553 E0.63492
G1 X92.691969 Y144.364355 E0.429587
G1 X93.405069 Y138.402201 E0.599146
G1 X89.406919 Y140.690396 E0.459651
G1 X90.675111 Y135.252384 E0.557167
G1 X86.228477 Y137.355554 E0.490813
G1 X87.983656 Y132.361442 E0.528194
G1 X83.172679 Y134.054884 E0.508912
G1 X85.445088 Y129.404016 E0.516497
G1 X80.415456 Y130.525422 E0.514181
G1 X83.230681 Y126.20449 E0.51458
G1 X78.097207 Y126.695228 E0.514555
G1 X81.425887 Y122.757531 E0.51448
G1 X76.263968 Y122.610063 E0.515268
G1 X80.02602 Y119.124333 E0.511742
G1 X74.845617 Y118.353132 E0.522599
G1 X78.861257 Y115.379703 E0.498569
G1 X73.575973 Y113.981118 E0.545519
G1 X77.59837 Y111.512871 E0.470895
G1 X72.129029 Y109.410967 E0.584646
G1 X76.007229 Y107.351307 E0.438156
G1 X70.463812 Y104.429616 E0.625248
G1 X74.301224 Y102.682379 E0.420721
G1 X69.067586 Y98.918396 E0.643244
G1 X73.205165 Y97.536422 E0.435269
G1 X68.806939 Y93.124617 E0.621596
G1 X73.597916 Y92.369939 E0.48394
G1 X70.42122 Y87.693097 E0.564128
G1 X75.954562 Y87.915719 E0.552566
G1 X74.028013 Y83.348446 E0.494609
G1 X80.019234 Y84.754737 E0.614054
G1 X79.032448 Y80.444623 E0.441192
G1 X84.968437 Y82.942121 E0.642585
G1 X84.507176 Y78.75153 E0.420664
G1 X89.924429 Y82.003737 E0.630463
G1 X89.73106 Y77.662479 E0.433602
G1 X94.411494 Y81.307282 E0.591918
G1 X94.481106 Y76.644412 E0.465315
G1 X98.444068 Y80.491725 E0.551117
G1 X98.926577 Y75.555322 E0.494904
G1 X102.278495 Y79.613008 E0.525154
G1 X103.316128 Y74.603137 E0.510496
G1 X106.116459 Y78.94795 E0.515772
G1 X107.761442 Y74.06239 E0.514374
G1 X110 Y74.992804 E0.241889
G1 X111.883239 Y79.766648 E0.512061
G1 X114.344607 Y75.261356 E0.512253
G1 X115.623409 Y80.219206 E0.510887
G1 X118.636509 Y76.012129 E0.516341
G1 X119.32421 Y80.996376 E0.502042
G1 X122.910727 Y77.032232 E0.533406
G1 X123.107974 Y81.82633 E0.478762
G1 X127.362147 Y78.04266 E0.568084
G1 X127.233587 Y82.505148 E0.445454
G1 X132.240636 Y78.984458 E0.610749
G1 X131.879966 Y83.180082 E0.420185
G1 X137.554581 Y80.214863 E0.638858
G1 X136.833044 Y84.39059 E0.42283
G1 X142.82273 Y82.361664 E0.63101
G1 X141.37975 Y86.750823 E0.461012
G1 X147.162411 Y85.893829 E0.583298
G1 X144.599811 Y90.499282 E0.525883
G1 X149.745877 Y90.750492 E0.514088
G1 X145.904336 Y95.291227 E0.593469
G1 X150.31375 Y96.344454 E0.45235
G1 X145.415698 Y100.411933 E0.635275
G1 X149.338411 Y101.936318 E0.419925
G1 X143.876771 Y105.22699 E0.636236
G1 X147.696857 Y107.062687 E0.422895
G1 X142.156348 Y109.49985 E0.603956
G1 X146.112901 Y111.686155 E0.45105
G1 X140.742549 Y113.360137 E0.561285
G1 X144.799821 Y116.012211 E0.483652
G1 X139.593886 Y117.031886 E0.529321
G1 X143.528264 Y120.206287 E0.504421
G1 X138.382484 Y120.608981 E0.515018
G1 X141.966653 Y124.272203 E0.511373
G1 X136.83896 Y124.045245 E0.512144
G1 X139.947665 Y128.128464 E0.512066
G1 X134.888715 Y127.267508 E0.512042
G1 X137.469926 Y131.707546 E0.512454
G1 X132.572094 Y130.239408 E0.510191
G1 X134.622959 Y135.008915 E0.518035
G1 X130.022685 Y133.041505 E0.499233
G1 X131.582807 Y138.202869 E0.538016
G1 X127.40859 Y135.944468 E0.473557
G1 X128.469243 Y141.610084 E0.575139
G1 X124.73712 Y139.259923 E0.440076
G1 X125.162234 Y145.430238 E0.617136
G1 X121.75107 Y142.993623 E0.418283
G1 X121.326685 Y149.398044 E0.640437
G1 X118.09632 Y146.59495 E0.426759
G1 X116.69592 Y152.706142 E0.625582
G1 X113.659176 Y149.09943 E0.470454
G1 X111.380418 Y154.36515 E0.572504
G1 X108.766228 Y149.652117 E0.537766
G1 X105.901455 Y153.794229 E0.502521
G1 X104.034473 Y148.04774 E0.60289
G1 X100.885088 Y151.198933 E0.44454
G1 X99.976164 Y144.866293 E0.638349
G1 X96.666863 Y147.43561 E0.418041
G1 X96.692929 Y141.0952 E0.632654
G1 X93.141798 Y143.47124 E0.426333
G1 X93.909552 Y137.538779 E0.59688
G1 X89.964105 Y139.860008 E0.456757
G1 X91.282844 Y134.458242 E0.55482
G1 X86.884406 Y136.600732 E0.488175
G1 X88.685243 Y131.648858 E0.525759
G1 X83.91721 Y133.387296 E0.506392
G1 X86.229682 Y128.784007 E0.514017
G1 X81.237078 Y129.955389 E0.511692
G1 X84.086153 Y125.68664 E0.512093
G1 X78.983219 Y126.231564 E0.512068
G1 X82.33901 Y122.349847 E0.511992
G1 X77.20067 Y122.259937 E0.512784
G1 X80.982678 Y118.833119 E0.509239
G1 X75.818529 Y118.121955 E0.520144
G1 X79.846659 Y115.20946 E0.495984
G1 X74.570053 Y113.872466 E0.54314
G1 X78.597281 Y111.466231 E0.468102
G1 X73.128909 Y109.426518 E0.582358
G1 X77.004207 Y107.42899 E0.435025
G1 X71.454032 Y104.569132 E0.622995
G1 X75.280855 Y102.883186 E0.417256
G1 X70.032838 Y99.179718 E0.640908
G1 X74.152304 Y97.857248 E0.431704
G1 X69.732299 Y93.503706 E0.619039
G1 X74.497918 Y92.805824 E0.480587
G1 X71.292383 Y88.184091 E0.561223
G1 X76.793515 Y88.459923 E0.549595
G1 X74.83151 Y83.943754 E0.491313
G1 X80.784167 Y85.398847 E0.611446
G1 X79.755857 Y81.135043 E0.437642
G1 X85.647523 Y83.67618 E0.640223
G1 X85.139312 Y79.526387 E0.417162
G1 X90.50717 Y82.816395 E0.628205
G1 X90.262151 Y78.509793 E0.430409
G1 X94.88888 Y82.185975 E0.589642
G1 X94.902942 Y77.551085 E0.462473
G1 X98.808719 Y81.422869 E0.548754
G1 X99.232635 Y76.507335 E0.492294
G1 X102.524774 Y80.582207 E0.522708
G1 X103.501676 Y75.585772 E0.507986
G1 X106.240558 Y79.940219 E0.513289
G1 X107.823611 Y75.060456 E0.511886
G1 X110 Y75.992804 E0.236249
G1 X111.82107 Y80.764714 E0.509637
G1 X114.220508 Y76.253626 E0.50983
G1 X115.437861 Y81.201841 E0.508457
G1 X118.39023 Y76.981328 E0.513934
G1 X119.018152 Y81.948389 E0.49956
G1 X122.546075 Y77.963376 E0.531058
G1 X122.686139 Y82.733003 E0.47612
G1 X126.88476 Y78.921354 E0.565827
G1 X126.702496 Y83.352463 E0.442512
G1 X131.657895 Y79.797116 E0.60855
G1 X131.24783 Y83.954939 E0.416882
G1 X136.875495 Y80.948922 E0.636617
G1 X136.109636 Y85.08101 E0.419323
G1 X142.057797 Y83.005775 E0.628595
G1 X140.576253 Y87.346131 E0.457618
G1 X146.323458 Y86.438033 E0.580573
G1 X143.728648 Y90.990276 E0.522834
G1 X148.845874 Y91.186376 E0.510974
G1 X144.978975 Y95.670315 E0.590803
G1 X149.366612 Y96.665279 E0.448915
G1 X144.450446 Y100.673255 E0.632898
G1 X148.358781 Y102.137125 E0.416432
G1 X142.886551 Y105.366506 E0.634012
G1 X146.699879 Y107.140371 E0.419648
G1 X141.156469 Y109.515402 E0.601753
G1 X145.113989 Y111.639514 E0.448166
G1 X139.748469 Y113.251484 E0.559013
G1 X143.814419 Y115.841968 E0.481047
G1 X138.620974 Y116.80071 E0.52696
G1 X142.571606 Y119.915073 E0.501953
G1 X137.445782 Y120.258854 E0.512606
G1 X141.05353 Y123.86452 E0.508945
G1 X135.952948 Y123.581582 E0.50972
G1 X139.092193 Y127.610614 E0.509642
G1 X134.067092 Y126.697476 E0.509618
G1 X136.685332 Y131.087537 E0.510031
G1 X131.827563 Y129.57182 E0.507757
G1 X133.921372 Y134.296331 E0.515634
G1 X129.366756 Y132.286682 E0.496734
G1 X130.975074 Y137.408727 E0.535683
G1 X126.851404 Y135.11408 E0.470875
G1 X127.96476 Y140.746662 E0.572895
G1 X124.287292 Y138.366808 E0.437073
G1 X124.7688 Y144.510885 E0.614938
G1 X121.415554 Y142.051589 E0.414928
G1 X121.050383 Y148.436973 E0.638177
G1 X117.880302 Y145.618561 E0.423248
G1 X116.541022 Y151.718211 E0.623124
G1 X113.565997 Y148.10378 E0.467105
G1 X111.349318 Y153.365634 E0.569717
G1 X108.797328 Y148.652601 E0.534783
G1 X105.994634 Y152.798579 E0.499343
G1 X104.189371 Y147.059809 E0.600281
G1 X101.101106 Y150.222544 E0.441073
G1 X100.252466 Y143.905222 E0.636007
G1 X97.00238 Y146.493576 E0.414571
G1 X97.086363 Y140.175847 E0.630441
G1 X93.591626 Y142.578125 E0.423146
G1 X94.414035 Y136.675358 E0.59467
G1 X90.521291 Y139.02962 E0.45393
G1 X91.890576 Y133.6641 E0.552533
G1 X87.540335 Y135.845909 E0.485603
G1 X89.38683 Y130.936274 E0.523387
G1 X84.66174 Y132.719708 E0.503937
G1 X87.014276 Y128.163997 E0.511601
G1 X82.058701 Y129.385357 E0.509266
G1 X84.941624 Y125.168791 E0.509669
G1 X79.86923 Y125.767901 E0.509644
G1 X83.252133 Y121.942163 E0.509567
G1 X78.137373 Y121.90981 E0.510363
G1 X81.939335 Y118.541904 E0.506799
G1 X76.791441 Y117.890779 E0.517751
G1 X80.832061 Y115.039216 E0.493464
G1 X75.564133 Y113.763813 E0.540822
G1 X79.596193 Y111.41959 E0.465376
G1 X74.128788 Y109.44207 E0.580128
G1 X78.001186 Y107.506674 E0.431961
G1 X72.444252 Y104.708647 E0.620795
G1 X76.260486 Y103.083993 E0.413856
G1 X70.998089 Y99.44104 E0.638625
G1 X75.099442 Y98.178074 E0.428198
G1 X70.65766 Y93.882794 E0.616534
G1 X75.397921 Y93.241708 E0.477291
G1 X72.163546 Y88.675085 E0.558371
G1 X77.632468 Y89.004127 E0.546678
G1 X75.635007 Y84.539063 E0.488075
G1 X81.549099 Y86.042957 E0.608891
G1 X80.479265 Y81.825463 E0.434151
G1 X86.326609 Y84.410238 E0.637912
G1 X85.771449 Y80.301244 E0.413722
G1 X91.089911 Y83.629053 E0.626001
G1 X90.793242 Y79.357108 E0.427283
G1 X95.366267 Y83.064669 E0.587422
G1 X95.324777 Y78.457757 E0.459698
G1 X99.173371 Y82.354013 E0.546451
G1 X99.538692 Y77.459348 E0.48975
G1 X102.771052 Y81.551406 E0.520325
G1 X103.687223 Y76.568407 E0.50554
G1 X106.364657 Y80.932489 E0.51087
G1 X107.885781 Y76.058521 E0.509461
G1 F250 X110 Y76.992804 E0.230638
G1 X111.760215 Y81.762092 Z0.194376 E0.509267
G1 X114.099562 Y77.244557 Z0.196752 E0.511634
G1 X115.256484 Y82.182921 Z0.199129 E0.512106
G1 X118.150551 Y77.948651 Z0.201505 E0.519861
G1 X118.719354 Y82.898689 Z0.203881 E0.507012
G1 X122.191696 Y78.892954 Z0.206257 E0.541529
G1 X122.274893 Y83.638563 Z0.208634 E0.486721
G1 X126.421599 Y79.799708 Z0.21101 E0.581707
G1 X126.185692 Y84.200138 Z0.213386 E0.45538
G1 X131.093711 Y80.611744 Z0.215762 E0.630681
G1 X130.634088 Y84.732715 Z0.218139 E0.431766
G1 X136.219549 Y81.688557 Z0.220515 E0.664883
G1 X135.408825 Y85.778163 Z0.222891 E0.437422
G1 X141.320279 Y83.660403 Z0.225267 E0.661296
G1 X139.798914 Y87.953105 Z0.227644 E0.481428
G1 X145.515008 Y86.998654 Z0.23002 E0.614892
G1 X142.8857 Y91.498402 Z0.232396 E0.555029
G1 X147.977537 Y91.644771 Z0.234772 E0.544509
G1 X144.081914 Y96.071725 Z0.237149 E0.632674
G1 X148.450224 Y97.014135 Z0.239525 E0.481219
G1 X143.511808 Y100.961249 Z0.241901 E0.683275
G1 X147.40739 Y102.370608 Z0.244277 E0.449374
G1 X141.920161 Y105.536249 Z0.246653 E0.689676
G1 X145.727746 Y107.254817 Z0.24903 E0.456448
G1 X140.177171 Y109.564487 Z0.251406 E0.659268
G1 X144.136084 Y111.633761 Z0.253782 E0.491625
G1 X138.77146 Y113.17997 Z0.256158 E0.616643
G1 X142.845722 Y115.717111 Z0.258535 E0.532019
G1 X137.661174 Y116.610681 Z0.260911 E0.585234
G1 X141.626623 Y119.673941 Z0.263287 E0.559386
G1 X136.517514 Y119.953934 Z0.265663 E0.573236
G1 X140.146129 Y123.511329 Z0.26804 E0.571295
G1 X135.06987 Y123.16677 Z0.270416 E0.574026
G1 X138.235563 Y127.150968 Z0.272792 E0.57613
G1 X133.242122 Y126.179241 Z0.275168 E0.577954
G1 X135.891865 Y130.528533 Z0.277545 E0.580622
G1 X131.072706 Y128.958169 Z0.279921 E0.579852
G1 X133.202436 Y133.646625 Z0.282297 E0.591147
G1 X128.692795 Y131.587278 Z0.284673 E0.571076
G1 X130.340603 Y136.678707 Z0.28705 E0.618558
G1 X126.267395 Y134.340361 Z0.289426 E0.544733
G1 X127.422726 Y139.94838 Z0.291802 E0.666353
G1 X123.800125 Y137.53163 Z0.294178 E0.508517
G1 X124.325007 Y143.657382 Z0.296554 E0.720371
G1 X121.030095 Y141.168271 Z0.298931 E0.485467
G1 X120.709026 Y147.541196 Z0.301307 E0.752692
G1 X117.600337 Y144.699867 Z0.303683 E0.498451
G1 X116.305871 Y150.79227 Z0.306059 E0.739614
G1 X113.395432 Y147.161608 Z0.308436 E0.554401
G1 X111.224684 Y152.421019 Z0.310812 E0.68015
G1 X108.740664 Y147.69868 Z0.313188 E0.639945
G1 X105.985171 Y151.847185 Z0.315564 E0.599269
G1 X104.250797 Y146.10681 Z0.317941 E0.723943
G1 X101.210299 Y149.277611 Z0.320317 E0.532081
G1 X100.433984 Y142.967292 Z0.322693 E0.772578
G1 X97.230642 Y145.569696 Z0.325069 E0.503148
G1 X97.386202 Y139.268052 Z0.327446 E0.770958
G1 X93.93531 Y141.690235 Z0.329822 E0.517318
G1 X94.826435 Y135.812437 Z0.332198 E0.731798
G1 X90.973238 Y138.191761 Z0.334574 E0.559241
G1 X92.406958 Y132.859438 Z0.33695 E0.684061
G1 X88.091397 Y135.070576 Z0.339327 E0.602643
G1 X89.997353 Y130.201655 Z0.341703 E0.651891
G1 X85.302085 Y132.01794 Z0.344079 E0.62965
G1 X87.708704 Y127.509887 Z0.346455 E0.641161
G1 X82.77816 Y128.767049 Z0.348832 E0.640421
G1 X85.709253 Y124.604529 Z0.351208 E0.642768
G1 X80.656976 Y125.241812 Z0.353584 E0.644951
G1 X84.081426 Y121.475815 Z0.35596 E0.646689
G1 X78.981665 Y121.483336 Z0.358337 E0.649926
G1 X82.817811 Y118.179975 Z0.360713 E0.647168
G1 X77.679544 Y117.569545 Z0.363089 E0.663527
G1 X81.746206 Y114.786044 Z0.365465 E0.633884
G1 X76.482309 Y113.550895 Z0.367842 E0.69761
G1 X80.531692 Y111.276557 Z0.370218 E0.601065
G1 X75.062854 Y109.337442 Z0.372594 E0.753235
G1 X78.943823 Y107.472161 Z0.37497 E0.560671
G1 X73.380689 Y104.709834 Z0.377347 E0.811204
G1 X77.197233 Y103.154778 Z0.379723 E0.539871
G1 X71.924832 Y99.545124 Z0.382099 E0.839564
G1 X76.018727 Y98.351642 Z0.384475 E0.56199
G1 X71.563704 Y94.088592 Z0.386851 E0.815062
G1 X76.28862 Y93.517834 Z0.389228 E0.630981
G1 X73.037517 Y88.983731 Z0.391604 E0.741896
G1 X78.48238 Y89.384257 Z0.39398 E0.728143
G1 X76.463909 Y84.952205 Z0.396356 E0.651441
G1 X82.344321 Y86.527486 Z0.398733 E0.816734
G1 X81.248691 Y82.34208 Z0.401109 E0.582145
G1 X87.052607 Y84.99546 Z0.403485 E0.861211
G1 X86.46733 Y80.915272 Z0.405861 E0.557888
