;FLAVOR:Marlin
;TIME:8690
;Filament used: 7.65032m
;Layer height: 0.28
;MINX:83.932
;MINY:83.211
;MINZ:0.28
;MAXX:151.179
;MAXY:151.756
;MAXZ:40.04
;TARGET_MACHINE.NAME:Creality Ender-3
;Generated with Cura_SteamEngine 5.6.0
M140 S50
M105
M190 S50
M104 S200
M105
M109 S200
M82 ;absolute extrusion mode
; Ender 3 Custom Start G-code
G92 E0 ; Reset Extruder
G28 ; Home all axes
G1 Z2.0 F3000 ; Move Z Axis up little to prevent scratching of Heat Bed
G1 X0.1 Y20 Z0.3 F5000.0 ; Move to start position
G1 X0.1 Y200.0 Z0.3 F1500.0 E15 ; Draw the first line
G1 X0.4 Y200.0 Z0.3 F5000.0 ; Move to side a little
G1 X0.4 Y20 Z0.3 F1500.0 E30 ; Draw the second line
G92 E0 ; Reset Extruder
G1 Z2.0 F3000 ; Move Z Axis up little to prevent scratching of Heat Bed
G1 X5 Y20 Z0.3 F5000.0 ; Move over to prevent blob squish
G92 E0
G92 E0
G1 F2700 E-5
;LAYER_COUNT:143
;LAYER:0
M107
G0 F6000 X91.292 Y84.468 Z0.28
;TYPE:SKIRT
G1 F2700 E0
G1 F1200 X92.099 Y83.71 E0.05155
G1 X92.933 Y83.365 E0.09358
G1 X93.809 Y83.211 E0.135
G1 X94.248 Y83.247 E0.15551
G1 X95.098 Y83.445 E0.19615
G1 X149.923 Y115.095 E3.14388
G1 X150.57 Y115.802 E3.18851
G1 X150.779 Y116.12 E3.20623
G1 X151.075 Y116.951 E3.24731
G1 X151.179 Y117.861 E3.28995
G1 X150.934 Y118.891 E3.33925
G1 X146.491 Y126.58 E3.75276
G1 X144.581 Y148.36 E4.77082
G1 X144.299 Y149.279 E4.81558
G1 X143.82 Y150.095 E4.85964
G1 X142.98 Y150.937 E4.91502
G1 X142.04 Y151.458 E4.96507
G1 X140.742 Y151.756 E5.02708
G1 X138.62 Y151.566 E5.12628
G1 X137.395 Y151.127 E5.18688
G1 X136.319 Y150.182 E5.25356
G1 X135.663 Y149.161 E5.31007
G1 X135.335 Y147.749 E5.37757
G1 X137.282 Y125.424 E6.42106
G1 X137.33 Y125.029 E6.43959
G1 X137.431 Y124.474 E6.46586
G1 X137.551 Y124.003 E6.48849
G1 X137.716 Y123.492 E6.51349
G1 X137.933 Y122.949 E6.54072
G1 X138.126 Y122.541 E6.56174
G1 X139.156 Y120.746 E6.6581
G1 X129.984 Y115.45 E7.15127
G1 X129.29 Y116.653 E7.21594
G1 X127.997 Y131.461 E7.90809
G1 X128.777 Y131.105 E7.94801
G1 X129.785 Y131.057 E7.995
G1 X130.662 Y131.141 E8.03603
G1 X131.429 Y131.415 E8.07395
G1 X132.096 Y131.859 E8.11126
G1 X132.385 Y132.154 E8.13049
G1 X132.793 Y132.787 E8.16556
G1 X133.262 Y134.201 E8.23493
G1 X133.48 Y135.183 E8.28177
G1 X133.535 Y136.031 E8.32134
G1 X133.514 Y136.486 E8.34255
G1 X133.313 Y137.619 E8.39613
G1 X132.986 Y138.553 E8.44221
G1 X132.741 Y139.023 E8.46689
G1 X132.063 Y139.992 E8.52196
G1 X131.504 Y140.57 E8.5594
G1 X130.859 Y141.072 E8.59746
G1 X129.978 Y141.574 E8.64467
G1 X128.964 Y141.967 E8.69531
G1 X127.909 Y142.126 E8.74499
G1 X127.286 Y142.144 E8.77401
G1 X123.321 Y141.778 E8.95942
G1 X122.751 Y141.639 E8.98674
G1 X121.889 Y141.324 E9.02948
G1 X121.029 Y140.864 E9.07489
G1 X120.154 Y140.107 E9.12877
G1 X119.526 Y139.389 E9.17318
G1 X119.306 Y139.064 E9.19146
G1 X118.845 Y138.19 E9.23747
G1 X118.552 Y137.366 E9.27819
G1 X118.407 Y136.706 E9.30966
G1 X118.336 Y135.978 E9.34372
G1 X118.332 Y135.649 E9.35904
G1 X120.082 Y115.484 E10.30153
G1 X120.138 Y115.066 E10.32117
G1 X120.256 Y114.445 E10.3506
G1 X120.376 Y113.994 E10.37234
G1 X120.52 Y113.556 E10.3938
G1 X120.753 Y112.973 E10.42304
G1 X120.911 Y112.639 E10.44024
G1 X121.956 Y110.816 E10.53809
G1 X112.784 Y105.52 E11.03126
G1 X112.09 Y106.721 E11.09585
G1 X110.797 Y121.53 E11.78804
G1 X111.569 Y121.178 E11.82755
G1 X112.494 Y121.122 E11.8707
G1 X113.414 Y121.199 E11.91369
G1 X114.206 Y121.47 E11.95267
G1 X114.788 Y121.843 E11.98485
G1 X115.084 Y122.108 E12.00335
G1 X115.607 Y122.895 E12.04735
G1 X116.071 Y124.303 E12.11638
G1 X116.27 Y125.185 E12.15849
G1 X116.333 Y126.021 E12.19752
G1 X116.294 Y126.738 E12.23096
G1 X116.157 Y127.524 E12.26811
G1 X115.869 Y128.469 E12.31411
G1 X115.444 Y129.254 E12.35568
G1 X114.99 Y129.905 E12.39264
G1 X114.393 Y130.581 E12.43463
G1 X113.61 Y131.176 E12.48042
G1 X112.899 Y131.611 E12.51923
G1 X111.734 Y132.042 E12.57708
G1 X110.671 Y132.199 E12.62711
G1 X110.158 Y132.217 E12.65101
G1 X106.196 Y131.863 E12.83623
G1 X105.538 Y131.706 E12.86773
G1 X104.7 Y131.421 E12.90895
G1 X103.584 Y130.733 E12.97
G1 X103.136 Y130.355 E12.99729
G1 X102.357 Y129.495 E13.05132
G1 X102.017 Y128.983 E13.07994
G1 X101.598 Y128.153 E13.12323
G1 X101.365 Y127.487 E13.15609
G1 X101.223 Y126.878 E13.18521
G1 X101.136 Y126.045 E13.22421
G1 X101.132 Y125.717 E13.23948
G1 X102.883 Y105.548 E14.18217
G1 X102.942 Y105.108 E14.20284
G1 X103.056 Y104.512 E14.23109
G1 X103.179 Y104.051 E14.25331
G1 X103.316 Y103.63 E14.27393
G1 X103.533 Y103.088 E14.30111
G1 X103.726 Y102.68 E14.32213
G1 X104.755 Y100.885 E14.41847
G1 X95.584 Y95.59 E14.91158
G1 X94.89 Y96.792 E14.97621
G1 X93.596 Y111.6 E15.66836
G1 X94.371 Y111.247 E15.70801
G1 X95.357 Y111.189 E15.754
G1 X96.223 Y111.262 E15.79447
G1 X96.997 Y111.532 E15.83264
G1 X97.633 Y111.941 E15.86785
G1 X97.927 Y112.229 E15.88701
G1 X98.41 Y112.961 E15.92785
G1 X98.88 Y114.406 E15.99861
G1 X99.07 Y115.251 E16.03893
G1 X99.134 Y116.127 E16.07983
G1 X99.1 Y116.761 E16.1094
G1 X98.957 Y117.59 E16.14857
G1 X98.668 Y118.545 E16.19503
G1 X98.237 Y119.332 E16.23681
G1 X97.719 Y120.062 E16.27849
G1 X97.261 Y120.556 E16.30986
G1 X96.617 Y121.105 E16.34926
G1 X95.967 Y121.514 E16.38502
G1 X95.006 Y121.943 E16.43403
G1 X94.424 Y122.114 E16.46227
G1 X93.35 Y122.278 E16.51286
G1 X92.947 Y122.286 E16.53163
G1 X89.019 Y121.941 E16.71524
G1 X88.563 Y121.839 E16.737
G1 X87.527 Y121.505 E16.78769
G1 X86.481 Y120.871 E16.84464
G1 X86.035 Y120.51 E16.87136
G1 X85.356 Y119.822 E16.91637
G1 X84.856 Y119.119 E16.95654
G1 X84.425 Y118.286 E17.00021
G1 X84.181 Y117.607 E17.03381
G1 X84.016 Y116.901 E17.06757
G1 X83.936 Y116.117 E17.10426
G1 X83.932 Y115.788 E17.11958
G1 X85.682 Y95.633 E18.06162
G1 X85.73 Y95.238 E18.08014
G1 X85.831 Y94.683 E18.10641
G1 X85.944 Y94.236 E18.12788
G1 X86.107 Y93.727 E18.15277
G1 X86.345 Y93.132 E18.18261
G1 X86.582 Y92.639 E18.20808
G1 X91.292 Y84.468 E18.64724
G0 F6000 X91.61 Y84.719
G1 F1200 X92.32 Y84.052 E18.6926
G1 X93.047 Y83.751 E18.72924
G1 X93.826 Y83.614 E18.76607
G1 X94.215 Y83.646 E18.78424
G1 X94.951 Y83.821 E18.81947
G1 X149.669 Y115.41 E21.76147
G1 X150.236 Y116.022 E21.80032
G1 X150.418 Y116.299 E21.81576
G1 X150.683 Y117.044 E21.85258
G1 X150.774 Y117.836 E21.8897
G1 X150.558 Y118.743 E21.93311
G1 X146.101 Y126.457 E22.34795
G1 X144.187 Y148.283 E23.36816
G1 X143.932 Y149.114 E23.40864
G1 X143.499 Y149.851 E23.44844
G1 X142.739 Y150.613 E23.49855
G1 X141.896 Y151.08 E23.54343
G1 X140.712 Y151.352 E23.6
G1 X138.71 Y151.173 E23.69359
G1 X137.602 Y150.776 E23.7484
G1 X136.625 Y149.918 E23.80894
G1 X136.038 Y149.003 E23.85956
G1 X135.739 Y147.717 E23.92104
G1 X137.679 Y125.472 E24.96079
G1 X137.724 Y125.101 E24.97819
G1 X137.825 Y124.546 E25.00446
G1 X137.932 Y124.126 E25.02464
G1 X138.097 Y123.615 E25.04965
G1 X138.295 Y123.12 E25.07447
G1 X138.488 Y122.712 E25.09549
G1 X139.701 Y120.599 E25.20894
G1 X129.838 Y114.904 E25.73926
G1 X128.9 Y116.53 E25.82667
G1 X127.517 Y132.367 E26.56691
G1 X127.674 Y132.178 E26.57836
G1 X128.163 Y131.825 E26.60644
G1 X128.874 Y131.5 E26.64284
G1 X129.747 Y131.455 E26.68355
G1 X130.573 Y131.534 E26.72218
G1 X131.248 Y131.775 E26.75556
G1 X131.842 Y132.171 E26.7888
G1 X132.07 Y132.403 E26.80395
G1 X132.429 Y132.96 E26.8348
G1 X132.882 Y134.327 E26.90186
G1 X133.081 Y135.21 E26.94401
G1 X133.135 Y136.013 E26.98148
G1 X133.114 Y136.468 E27.00269
G1 X132.935 Y137.488 E27.05091
G1 X132.631 Y138.368 E27.09427
G1 X132.386 Y138.838 E27.11895
G1 X131.774 Y139.715 E27.16874
G1 X131.258 Y140.254 E27.20349
G1 X130.613 Y140.756 E27.24155
G1 X129.833 Y141.201 E27.28336
G1 X128.861 Y141.578 E27.33191
G1 X127.85 Y141.73 E27.37951
G1 X127.276 Y141.744 E27.40625
G1 X123.414 Y141.389 E27.58684
G1 X122.887 Y141.263 E27.61207
G1 X122.078 Y140.971 E27.65212
G1 X121.258 Y140.532 E27.69543
G1 X120.416 Y139.804 E27.74726
G1 X119.856 Y139.162 E27.78693
G1 X119.66 Y138.877 E27.80303
G1 X119.199 Y138.003 E27.84904
G1 X118.943 Y137.28 E27.88476
G1 X118.798 Y136.62 E27.91622
G1 X118.736 Y135.971 E27.94658
G1 X118.731 Y135.684 E27.95995
G1 X120.479 Y115.536 E28.90165
G1 X120.531 Y115.141 E28.9202
G1 X120.649 Y114.52 E28.94963
G1 X120.756 Y114.119 E28.96896
G1 X120.9 Y113.681 E28.99043
G1 X121.115 Y113.144 E29.01736
G1 X121.273 Y112.81 E29.03457
G1 X122.501 Y110.669 E29.14949
G1 X112.638 Y104.974 E29.67982
G1 X111.7 Y106.598 E29.76715
G1 X110.316 Y122.437 E30.50749
G1 X110.474 Y122.247 E30.51899
G1 X110.963 Y121.894 E30.54708
G1 X111.668 Y121.573 E30.58315
G1 X112.461 Y121.521 E30.62015
G1 X113.334 Y121.594 E30.66094
G1 X114.029 Y121.832 E30.69515
G1 X114.572 Y122.18 E30.72518
G1 X114.78 Y122.372 E30.73836
G1 X115.243 Y123.069 E30.77733
G1 X115.681 Y124.393 E30.84226
G1 X115.871 Y125.215 E30.88155
G1 X115.934 Y126.051 E30.92059
G1 X115.9 Y126.671 E30.9495
G1 X115.774 Y127.407 E30.98427
G1 X115.496 Y128.318 E31.02862
G1 X115.116 Y129.025 E31.06599
G1 X114.662 Y129.676 E31.10295
G1 X114.123 Y130.284 E31.14079
G1 X113.368 Y130.857 E31.18492
G1 X112.726 Y131.249 E31.21995
G1 X111.636 Y131.652 E31.27406
G1 X110.657 Y131.799 E31.32016
G1 X110.144 Y131.817 E31.34406
G1 X106.288 Y131.474 E31.52432
G1 X105.667 Y131.327 E31.55403
G1 X104.87 Y131.056 E31.59323
G1 X103.84 Y130.425 E31.64948
G1 X103.431 Y130.085 E31.67424
G1 X102.689 Y129.272 E31.7255
G1 X102.373 Y128.801 E31.75191
G1 X101.975 Y128.02 E31.79272
G1 X101.755 Y127.396 E31.82353
G1 X101.613 Y126.787 E31.85265
G1 X101.536 Y126.04 E31.88762
G1 X101.532 Y125.712 E31.90289
G1 X103.279 Y105.601 E32.84287
G1 X103.335 Y105.183 E32.86251
G1 X103.443 Y104.615 E32.88943
G1 X103.56 Y104.174 E32.91068
G1 X103.688 Y103.778 E32.93006
G1 X103.895 Y103.259 E32.95607
G1 X104.088 Y102.851 E32.97709
G1 X105.3 Y100.738 E33.09052
G1 X95.438 Y95.044 E33.62078
G1 X94.5 Y96.669 E33.70815
G1 X93.115 Y112.517 E34.44891
G1 X93.287 Y112.307 E34.46155
G1 X93.766 Y111.962 E34.48904
G1 X94.47 Y111.642 E34.52504
G1 X95.323 Y111.588 E34.56484
G1 X96.139 Y111.657 E34.60298
G1 X96.822 Y111.895 E34.63665
G1 X97.381 Y112.255 E34.66761
G1 X97.617 Y112.486 E34.68299
G1 X98.047 Y113.137 E34.71932
G1 X98.49 Y114.496 E34.78588
G1 X98.671 Y115.28 E34.82335
G1 X98.735 Y116.156 E34.86424
G1 X98.706 Y116.694 E34.88933
G1 X98.574 Y117.474 E34.92617
G1 X98.296 Y118.392 E34.97083
G1 X97.91 Y119.102 E35.00846
G1 X97.425 Y119.791 E35.0477
G1 X97 Y120.253 E35.07693
G1 X96.404 Y120.766 E35.11354
G1 X95.754 Y121.175 E35.1493
G1 X94.893 Y121.559 E35.1932
G1 X94.311 Y121.73 E35.22145
G1 X93.342 Y121.878 E35.26709
G1 X92.939 Y121.886 E35.28586
G1 X89.105 Y121.55 E35.46507
G1 X88.686 Y121.458 E35.48505
G1 X87.693 Y121.138 E35.53363
G1 X86.731 Y120.559 E35.58591
G1 X86.32 Y120.229 E35.61045
G1 X85.641 Y119.541 E35.65546
G1 X85.211 Y118.934 E35.6901
G1 X84.801 Y118.149 E35.73134
G1 X84.571 Y117.516 E35.7627
G1 X84.406 Y116.81 E35.79646
G1 X84.336 Y116.11 E35.82922
G1 X84.331 Y115.823 E35.84258
G1 X86.079 Y95.681 E36.78401
G1 X86.124 Y95.31 E36.80141
G1 X86.225 Y94.755 E36.82767
G1 X86.332 Y94.335 E36.84786
G1 X86.488 Y93.849 E36.87162
G1 X86.706 Y93.305 E36.89891
G1 X86.929 Y92.839 E36.92297
G1 X91.61 Y84.719 E37.3594
G0 F6000 X91.928 Y84.97
G1 F1200 X92.541 Y84.394 E37.39857
G1 X93.161 Y84.137 E37.42982
G1 X93.845 Y84.017 E37.46215
G1 X94.122 Y84.035 E37.47508
G1 X94.803 Y84.197 E37.50767
G1 X149.417 Y115.726 E40.44409
G1 X149.902 Y116.242 E40.47706
G1 X150.057 Y116.478 E40.49021
G1 X150.292 Y117.137 E40.52279
G1 X150.369 Y117.811 E40.55438
G1 X150.182 Y118.595 E40.59191
G1 X145.711 Y126.334 E41.00808
G1 X143.793 Y148.206 E42.03044
G1 X143.565 Y148.949 E42.06663
G1 X143.178 Y149.607 E42.10218
G1 X142.498 Y150.289 E42.14702
G1 X141.752 Y150.702 E42.18673
G1 X140.682 Y150.948 E42.23785
G1 X138.8 Y150.78 E42.32583
G1 X137.809 Y150.425 E42.37485
G1 X136.931 Y149.654 E42.42926
G1 X136.413 Y148.846 E42.47395
G1 X136.143 Y147.685 E42.52945
G1 X138.076 Y125.52 E43.56547
G1 X138.118 Y125.173 E43.58174
G1 X138.219 Y124.618 E43.60801
G1 X138.313 Y124.248 E43.62579
G1 X138.469 Y123.763 E43.64951
G1 X138.657 Y123.291 E43.67317
G1 X138.85 Y122.883 E43.69418
G1 X140.246 Y120.452 E43.82472
G1 X129.692 Y114.358 E44.3922
G1 X128.51 Y116.407 E44.50234
G1 X127.006 Y133.624 E45.30709
G1 X127.315 Y133.651 E45.32153
G1 X127.544 Y133.039 E45.35196
G1 X127.908 Y132.502 E45.38217
G1 X128.363 Y132.173 E45.40831
G1 X128.972 Y131.895 E45.43949
G1 X129.709 Y131.853 E45.47386
G1 X130.483 Y131.927 E45.51007
G1 X131.068 Y132.136 E45.53899
G1 X131.62 Y132.504 E45.56988
G1 X131.734 Y132.62 E45.57746
G1 X132.065 Y133.133 E45.60589
G1 X132.492 Y134.417 E45.66889
G1 X132.682 Y135.238 E45.70813
G1 X132.735 Y135.995 E45.74347
G1 X132.714 Y136.45 E45.76468
G1 X132.556 Y137.359 E45.80764
G1 X132.276 Y138.183 E45.84816
G1 X132.031 Y138.653 E45.87284
G1 X131.485 Y139.438 E45.91737
G1 X130.969 Y139.977 E45.95211
G1 X130.369 Y140.439 E45.98737
G1 X129.688 Y140.828 E46.02389
G1 X128.759 Y141.188 E46.07029
G1 X127.79 Y141.334 E46.11592
G1 X127.268 Y141.344 E46.14023
G1 X123.506 Y141 E46.31613
G1 X123.021 Y140.886 E46.33933
G1 X122.267 Y140.618 E46.37659
G1 X121.485 Y140.199 E46.4179
G1 X120.717 Y139.54 E46.46502
G1 X120.186 Y138.935 E46.50251
G1 X119.99 Y138.65 E46.51861
G1 X119.553 Y137.817 E46.56242
G1 X119.333 Y137.192 E46.59327
G1 X119.196 Y136.581 E46.62243
G1 X119.136 Y135.964 E46.65129
G1 X119.131 Y135.677 E46.66466
G1 X120.876 Y115.587 E47.60365
G1 X120.924 Y115.215 E47.62112
G1 X121.036 Y114.622 E47.64922
G1 X121.136 Y114.244 E47.66743
G1 X121.28 Y113.806 E47.6889
G1 X121.477 Y113.315 E47.71353
G1 X121.635 Y112.981 E47.73074
G1 X123.046 Y110.522 E47.86275
G1 X112.492 Y104.428 E48.43023
G1 X111.31 Y106.475 E48.54029
G1 X109.805 Y123.693 E49.34509
G1 X110.115 Y123.72 E49.35958
G1 X110.344 Y123.108 E49.39001
G1 X110.708 Y122.571 E49.42022
G1 X111.163 Y122.242 E49.44636
G1 X111.767 Y121.967 E49.47727
G1 X112.428 Y121.92 E49.50812
G1 X113.254 Y121.989 E49.54672
G1 X113.852 Y122.194 E49.57615
G1 X114.356 Y122.517 E49.60403
G1 X114.473 Y122.632 E49.61167
G1 X114.879 Y123.243 E49.64583
G1 X115.301 Y124.519 E49.70841
G1 X115.472 Y125.245 E49.74314
G1 X115.535 Y126.081 E49.78218
G1 X115.506 Y126.605 E49.80661
G1 X115.391 Y127.29 E49.83896
G1 X115.124 Y128.166 E49.8816
G1 X114.788 Y128.796 E49.91485
G1 X114.334 Y129.447 E49.9518
G1 X113.853 Y129.986 E49.98544
G1 X113.126 Y130.538 E50.02795
G1 X112.548 Y130.889 E50.05943
G1 X111.54 Y131.261 E50.10946
G1 X110.597 Y131.403 E50.15387
G1 X110.132 Y131.417 E50.17553
G1 X106.379 Y131.084 E50.35097
G1 X105.796 Y130.948 E50.37885
G1 X105.041 Y130.691 E50.41599
G1 X104.096 Y130.117 E50.46747
G1 X103.687 Y129.777 E50.49224
G1 X103.02 Y129.047 E50.53828
G1 X102.729 Y128.618 E50.56242
G1 X102.352 Y127.886 E50.60076
G1 X102.145 Y127.305 E50.62948
G1 X102.003 Y126.696 E50.6586
G1 X101.936 Y126.033 E50.68963
G1 X101.931 Y125.747 E50.70295
G1 X103.676 Y105.653 E51.64213
G1 X103.728 Y105.258 E51.66068
G1 X103.836 Y104.69 E51.6876
G1 X103.941 Y104.297 E51.70654
G1 X104.069 Y103.901 E51.72592
G1 X104.257 Y103.43 E51.74954
G1 X104.45 Y103.022 E51.77055
G1 X105.845 Y100.591 E51.90106
G1 X95.292 Y94.498 E52.46848
G1 X94.11 Y96.546 E52.57859
G1 X92.605 Y113.764 E53.38339
G1 X92.931 Y113.793 E53.39863
G1 X93.141 Y113.184 E53.42862
G1 X93.521 Y112.632 E53.45983
G1 X93.97 Y112.309 E53.48558
G1 X94.569 Y112.036 E53.51623
G1 X95.289 Y111.987 E53.54984
G1 X96.055 Y112.052 E53.58563
G1 X96.649 Y112.259 E53.61492
G1 X97.165 Y112.591 E53.6435
G1 X97.283 Y112.706 E53.65117
G1 X97.684 Y113.313 E53.68504
G1 X98.101 Y114.588 E53.74751
G1 X98.272 Y115.31 E53.78206
G1 X98.335 Y116.137 E53.82068
G1 X98.311 Y116.629 E53.84361
G1 X98.191 Y117.358 E53.87802
G1 X97.925 Y118.238 E53.92082
G1 X97.582 Y118.873 E53.95443
G1 X97.13 Y119.521 E53.99122
G1 X96.737 Y119.951 E54.01834
G1 X96.191 Y120.427 E54.05207
G1 X95.541 Y120.836 E54.08783
G1 X94.78 Y121.175 E54.12662
G1 X94.198 Y121.346 E54.15487
G1 X93.334 Y121.478 E54.19557
G1 X92.931 Y121.486 E54.21434
G1 X89.189 Y121.159 E54.38924
G1 X88.809 Y121.077 E54.40735
G1 X87.857 Y120.77 E54.45392
G1 X86.98 Y120.246 E54.50149
G1 X86.605 Y119.948 E54.5238
G1 X85.926 Y119.26 E54.56881
G1 X85.565 Y118.747 E54.59802
