
;FLAVOR:Marlin
;TIME:0
;Filament used: 0m
;Layer height: 0
;MINX:0
;MINY:0
;MINZ:0
;MAXX:220
;MAXY:220
;MAXZ:250

; Time to print!!!!!
; GCode created with FullControl - tell us what you're printing!
; info@fullcontrol.xyz or tag FullControlXYZ on Twitter/Instagram/LinkedIn/Reddit/TikTok 

G28 ; home axes
M140 S50 ; set bed temp and continue
M105
M104 S200 ; set hotend temp and continue
M190 S50 ; set bed temp and wait
M105
M109 S200  ; set hotend temp and wait
G90 ; absolute coordinates
G21 ; set units to millimeters
M83 ; relative extrusion
M106 S255 ; set fan speed
M220 S100 ; set speed factor override percentage
M221 S100 ; set extrude factor override percentage
;-----
; END OF STARTING PROCEDURE
;-----

;-----
; START OF PRIMER PROCEDURE
;-----
G0 F8000 X0.1 Y20 Z0.3
G1 F1500 Y200 E17.960473
G0 F8000 X0.4
G1 F1500 Y20 E17.960473
G0 F8000 X5
G1 E-2 F2700 ; retract before travel to suppress ooze
G0 X110 Y85 Z0.192
G1 E2 F2700 ; unretract
;-----
; END OF PRIMER PROCEDURE
;-----

G1 F250 X111.430405 Y87.036417 E0.248312
G1 X113.110396 Y85.129867 E0.253554
G1 X114.306737 Y87.192116 E0.23789
G1 X116.276388 Y85.30008 E0.272518
G1 X117.317893 Y87.237169 E0.21945
G1 X119.66253 Y85.32656 E0.301788
G1 X120.649054 Y87.111418 E0.203487
G1 X123.429676 Y85.280895 E0.332175
G1 X124.406977 Y87.014785 E0.198598
G1 X127.591457 Y85.467942 E0.353251
G1 X128.4967 Y87.327206 E0.206339
G1 X131.927737 Y86.297203 E0.357444
G1 X132.583905 Y88.445961 E0.224178
G1 X136.002623 Y88.104526 E0.342818
G1 X136.168628 Y90.611729 E0.250718
G1 X139.287519 Y91.002041 E0.313632
G1 X138.745216 Y93.798976 E0.284277
G1 X141.341192 Y94.821003 E0.278379
G1 X139.98287 Y97.717048 E0.319174
G1 X141.97091 Y99.170438 E0.245724
G1 X139.849239 Y101.918936 E0.346451
G1 X141.304428 Y103.583143 E0.220584
G1 X138.622208 Y105.967323 E0.35808
G1 X139.739725 Y107.682701 E0.204279
G1 X136.782505 Y109.583433 E0.350767
G1 X137.791805 Y111.297633 E0.198489
G1 X134.831034 Y112.714013 E0.327491
G1 X135.900231 Y114.474669 E0.205535
G1 X133.107273 Y115.490584 E0.296546
G1 X134.277769 Y117.390358 E0.222651
G1 X131.684077 Y118.105209 E0.268449
G1 X132.862018 Y120.207242 E0.240429
G1 X130.38039 Y120.665375 E0.251802
G1 X131.387049 Y122.946396 E0.24878
G1 X128.913016 Y123.121636 E0.247479
G1 X129.693945 Y125.562737 E0.255734
G1 X127.337655 Y125.545916 E0.235118
G1 X127.966934 Y128.24856 E0.276884
G1 X125.799978 Y128.18214 E0.216321
G1 X126.244583 Y131.227259 E0.307065
G1 X124.222717 Y131.196479 E0.201766
G1 X124.354242 Y134.567265 E0.336594
G1 X122.359389 Y134.539038 E0.199067
G1 X122.018007 Y138.08299 E0.355254
G1 X119.935143 Y137.895021 E0.208674
G1 X119.011185 Y141.343952 E0.356271
G1 X116.803805 Y140.75285 E0.228014
G1 X115.298938 Y143.796281 E0.33877
G1 X113.047843 Y142.56715 E0.255917
G1 X111.087481 Y144.950474 E0.30792
G1 X108.974719 Y142.951441 E0.29022
G1 X106.765798 Y144.558449 E0.272563
G1 X105.010858 Y141.82042 E0.324503
G1 X102.764159 Y142.705629 E0.24095
G1 X101.541418 Y139.42181 E0.349638
G1 X99.393824 Y139.779089 E0.217233
G1 X98.76886 Y136.244284 E0.358175
G1 X96.740955 Y136.325268 E0.202506
G1 X96.654723 Y132.840422 E0.347826
G1 X94.662912 Y132.857255 E0.198751
G1 X94.970883 Y129.638976 E0.322588
G1 X92.888165 Y129.691786 E0.207881
G1 X93.436239 Y126.823392 E0.291387
G1 X91.173283 Y126.881092 E0.225872
G1 X91.875243 Y124.322718 E0.26471
G1 X89.443739 Y124.261701 E0.242693
G1 X90.323894 Y121.910697 E0.250484
G1 X87.847587 Y121.592702 E0.249116
G1 X88.964229 Y119.391875 E0.246248
G1 X86.442518 Y118.805462 E0.258331
G1 X87.635547 Y116.807929 E0.232157
G1 X84.946903 Y115.952937 E0.281512
G1 X86.070573 Y114.134182 E0.213318
G1 X83.180806 Y112.931317 E0.312324
G1 X84.206019 Y111.204352 E0.200394
G1 X81.217737 Y109.55233 E0.340703
G1 X82.254231 Y107.838069 E0.199885
G1 X79.397352 Y105.688292 E0.356752
G1 X80.654834 Y103.984757 E0.211273
G1 X78.220258 Y101.396293 E0.354569
G1 X79.923366 Y99.81209 E0.232089
G1 X78.166409 Y96.958871 E0.334343
G1 X80.458813 Y95.692772 E0.261305
G1 X79.512459 Y92.816988 E0.302085
G1 X82.390386 Y92.09045 E0.29617
G1 X82.224378 Y89.421112 E0.266862
G1 X85.527242 Y89.392747 E0.329573
G1 X85.969277 Y87.065121 E0.236403
G1 X89.430435 Y87.76532 E0.352352
G1 X90.239028 Y85.777492 E0.214128
G1 X93.574025 Y87.093258 E0.35773
G1 X94.53084 Y85.320156 E0.201037
G1 X97.525097 Y87.038282 E0.34446
G1 X98.507276 Y85.298073 E0.199386
G1 X101.066773 Y87.188848 E0.317516
G1 X102.069993 Y85.333143 E0.210489
G1 X104.216169 Y87.238478 E0.286361
G1 X105.322167 Y85.226846 E0.229058
G1 X107.137801 Y87.114406 E0.26133
G1 X108.445256 Y85.040286 E0.244643
G1 X110 Y86 E0.182308
G1 X111.368235 Y88.034482 E0.244639
G1 X112.986298 Y86.122137 E0.249953
G1 X114.121189 Y88.174751 E0.234031
G1 X116.030109 Y86.269279 E0.269126
G1 X117.011835 Y88.189182 E0.215161
G1 X119.297879 Y86.257704 E0.298619
G1 X120.227219 Y88.018091 E0.198627
G1 X122.95229 Y86.159589 E0.329125
G1 X123.875886 Y87.8621 E0.193265
G1 X127.008716 Y86.2806 E0.350168
G1 X127.864563 Y88.102063 E0.200809
G1 X131.248651 Y87.031261 E0.354167
G1 X131.860497 Y89.136381 E0.218742
G1 X135.23769 Y88.748637 E0.339192
G1 X135.365131 Y91.207038 E0.24563
G1 X138.448567 Y91.546246 E0.309523
G1 X137.874053 Y94.289971 E0.279707
G1 X140.44119 Y95.256888 E0.273717
G1 X139.057509 Y98.096136 E0.315153
G1 X141.023772 Y99.491264 E0.240563
G1 X138.883987 Y102.180258 E0.342893
G1 X140.324797 Y103.78395 E0.215113
G1 X137.631988 Y106.106838 E0.354846
G1 X138.742747 Y107.760385 E0.198761
G1 X135.782626 Y109.598985 E0.3477
G1 X136.792893 Y111.250992 E0.193218
G1 X133.836954 Y112.605361 E0.32443
G1 X134.914829 Y114.304425 E0.20077
G1 X132.134361 Y115.259408 E0.293344
G1 X133.321111 Y117.099144 E0.218449
G1 X130.747375 Y117.755082 E0.265017
G1 X131.948895 Y119.799558 E0.236619
G1 X129.494379 Y120.201712 E0.248178
G1 X130.531577 Y122.428547 E0.245114
G1 X128.091394 Y122.551604 E0.243792
G1 X128.909351 Y124.942727 E0.252161
G1 X126.593124 Y124.878328 E0.231203
G1 X127.265348 Y127.535976 E0.273533
G1 X125.144049 Y127.427317 E0.211941
G1 X125.63685 Y130.433118 E0.303924
G1 X123.665531 Y130.366091 E0.196813
G1 X123.849759 Y133.703844 E0.333549
G1 X121.90956 Y133.645923 E0.19368
G1 X121.624574 Y137.163637 E0.352149
G1 X119.599626 Y136.952986 E0.20314
G1 X118.734883 Y140.382881 E0.352946
G1 X116.587788 Y139.776461 E0.222619
G1 X115.14404 Y142.80835 E0.335071
G1 X112.954664 Y141.571501 E0.250907
G1 X111.056381 Y143.950957 E0.303721
G1 X109.005819 Y141.951925 E0.285744
G1 X106.858977 Y143.562799 E0.26781
G1 X105.165756 Y140.832489 E0.320567
G1 X102.980177 Y141.72924 E0.235721
G1 X101.81772 Y138.460739 E0.346145
G1 X99.729341 Y138.837055 E0.211735
G1 X99.162293 Y135.324931 E0.354979
G1 X97.190783 Y135.432153 E0.197009
G1 X97.159206 Y131.977 E0.344771
G1 X95.220098 Y132.026867 E0.193549
G1 X95.578615 Y128.844834 E0.319513
G1 X93.544093 Y128.936963 E0.203213
G1 X94.137826 Y126.110808 E0.288151
G1 X91.917814 Y126.213504 E0.221751
G1 X92.659838 Y123.702708 E0.26124
G1 X90.265362 Y123.691669 E0.238924
G1 X91.179366 Y121.392848 E0.246843
G1 X88.733598 Y121.129039 E0.245455
G1 X89.877352 Y118.984191 E0.242541
G1 X87.37922 Y118.455335 E0.254789
G1 X88.592204 Y116.516714 E0.228181
G1 X85.919815 Y115.72176 E0.2782
G1 X87.055975 Y113.963938 E0.208844
G1 X84.174886 Y112.822665 E0.309209
G1 X85.20493 Y111.157712 E0.195352
G1 X82.217616 Y109.567881 E0.337659
G1 X83.251209 Y107.915753 E0.194453
G1 X80.387572 Y105.827808 E0.353622
G1 X81.634465 Y104.185565 E0.205744
G1 X79.18551 Y101.657614 E0.351192
G1 X80.870504 Y100.132916 E0.226743
G1 X79.09177 Y97.337959 E0.330568
G1 X81.358816 Y96.128656 E0.256378
G1 X80.383621 Y93.307982 E0.297794
G1 X83.229339 Y92.634654 E0.291787
G1 X83.027875 Y90.016421 E0.262021
G1 X86.292175 Y90.036857 E0.32572
G1 X86.692686 Y87.755541 E0.231112
G1 X90.109521 Y88.499378 E0.348919
G1 X90.871164 Y86.552349 E0.208611
G1 X94.156766 Y87.905915 E0.354569
G1 X95.061932 Y86.167471 E0.195567
G1 X98.002483 Y87.916975 E0.341412
G1 X98.929111 Y86.204746 E0.194261
G1 X101.431424 Y88.119992 E0.314423
G1 X102.37605 Y86.285156 E0.205919
G1 X104.462448 Y88.207677 E0.283087
G1 X105.507715 Y86.209481 E0.225012
G1 X107.2619 Y88.106676 E0.257822
G1 X108.507426 Y86.038351 E0.240909
G1 X110 Y87 E0.177164
G1 X111.306065 Y89.032548 E0.241069
G1 X112.862199 Y87.114406 E0.246456
G1 X113.935642 Y89.157387 E0.230276
G1 X115.783831 Y87.238478 E0.265836
G1 X116.705778 Y89.141195 E0.210967
G1 X118.933227 Y87.188848 E0.295545
G1 X119.805384 Y88.924763 E0.193843
G1 X122.474903 Y87.038282 E0.326164
G1 X123.344795 Y88.709415 E0.187985
G1 X126.425975 Y87.093258 E0.347168
G1 X127.232427 Y88.87692 E0.19532
G1 X130.569565 Y87.76532 E0.350968
G1 X131.137088 Y89.826801 E0.213348
G1 X134.472758 Y89.392747 E0.335641
G1 X134.561634 Y91.802347 E0.240594
G1 X137.609614 Y92.09045 E0.305484
G1 X137.00289 Y94.780965 E0.275202
G1 X139.541187 Y95.692772 E0.269118
G1 X138.132149 Y98.475225 E0.311203
G1 X140.076634 Y99.81209 E0.235453
G1 X137.918735 Y102.44158 E0.339411
G1 X139.345166 Y103.984757 E0.209684
G1 X136.641768 Y106.246354 E0.351691
G1 X137.745769 Y107.838069 E0.193285
G1 X134.782746 Y109.614537 E0.344717
G1 X135.793981 Y111.204352 E0.188004
G1 X132.842874 Y112.496708 E0.32146
G1 X133.929427 Y114.134182 E0.196086
G1 X131.16145 Y115.028231 E0.29024
G1 X132.364453 Y116.807929 E0.214343
G1 X129.810672 Y117.404956 E0.261688
G1 X131.035771 Y119.391875 E0.232912
G1 X128.608368 Y119.738048 E0.244658
G1 X129.676106 Y121.910697 E0.241552
G1 X127.269771 Y121.981572 E0.240209
G1 X128.124757 Y124.322718 E0.248691
G1 X125.848594 Y124.21074 E0.227391
G1 X126.563761 Y126.823392 E0.270282
G1 X124.488121 Y126.672494 E0.207655
G1 X125.029117 Y129.638976 E0.300879
G1 X123.108346 Y129.535703 E0.191932
G1 X123.345277 Y132.840422 E0.330593
G1 X121.459732 Y132.752808 E0.188343
G1 X121.23114 Y136.244284 E0.349127
G1 X119.264109 Y136.010952 E0.197647
G1 X118.458582 Y139.42181 E0.349699
G1 X116.37177 Y138.800071 E0.217268
G1 X114.989142 Y141.82042 E0.331448
G1 X112.861485 Y140.575851 E0.245952
G1 X111.025281 Y142.951441 E0.299592
G1 X109.036919 Y140.952408 E0.281333
G1 X106.952157 Y142.56715 E0.263118
G1 X105.320654 Y139.844559 E0.316703
G1 X103.196195 Y140.75285 E0.230541
G1 X102.094022 Y137.499668 E0.342728
G1 X100.064857 Y137.895021 E0.206278
G1 X99.555727 Y134.405578 E0.351865
G1 X97.640611 Y134.539038 E0.191554
G1 X97.663689 Y131.113579 E0.341801
G1 X95.777283 Y131.196479 E0.188408
G1 X96.186348 Y128.050693 E0.316531
G1 X94.200022 Y128.18214 E0.19863
G1 X94.839413 Y125.398224 E0.285013
G1 X92.662345 Y125.545916 E0.217728
G1 X93.444432 Y123.082699 E0.257872
G1 X91.086984 Y123.121636 E0.235259
G1 X92.034838 Y120.874998 E0.243305
G1 X89.61961 Y120.665375 E0.241898
G1 X90.790475 Y118.576508 E0.238938
G1 X88.315923 Y118.105209 E0.25135
G1 X89.548862 Y116.2255 E0.224305
G1 X86.892727 Y115.490584 E0.274988
G1 X88.041377 Y113.793694 E0.204461
G1 X85.168966 Y112.714013 E0.306189
G1 X86.203842 Y111.111071 E0.190379
G1 X83.217495 Y109.583433 E0.334703
G1 X84.248187 Y107.993436 E0.189068
G1 X81.377792 Y105.967323 E0.350573
G1 X82.614095 Y104.386372 E0.200254
G1 X80.150761 Y101.918936 E0.347893
G1 X81.817643 Y100.453741 E0.221443
G1 X80.01713 Y97.717048 E0.326868
G1 X82.258818 Y96.564541 E0.251507
G1 X81.254784 Y93.798976 E0.293572
G1 X84.068292 Y93.178858 E0.287471
G1 X83.831372 Y90.611729 E0.257238
G1 X87.057107 Y90.680968 E0.321939
G1 X87.416095 Y88.445961 E0.225868
G1 X90.788607 Y89.233437 E0.345562
G1 X91.5033 Y87.327206 E0.203133
G1 X94.739507 Y88.718573 E0.35149
G1 X95.593023 Y87.014785 E0.190143
G1 X98.47987 Y88.795669 E0.338452
G1 X99.350946 Y87.111418 E0.189201
G1 X101.796076 Y89.051136 E0.311423
G1 X102.682107 Y87.237169 E0.201436
G1 X104.708727 Y89.176876 E0.279913
G1 X105.693263 Y87.192116 E0.221067
G1 X107.385999 Y89.098946 E0.254418
G1 X108.569595 Y87.036417 E0.237279
G1 F250 X110 Y88 E0.17209
G1 X111.24509 Y90.030688 Z0.194376 E0.238619
G1 X112.740793 Y88.106411 Z0.196752 E0.245112
G1 X113.753879 Y90.139521 Z0.199129 E0.229348
G1 X115.543207 Y88.207266 Z0.201505 E0.266934
G1 X116.406406 Y90.092849 Z0.203881 E0.21102
G1 X118.577518 Y88.120288 Z0.206257 E0.299649
G1 X119.393506 Y89.832119 Z0.208634 E0.194466
G1 X122.01008 Y87.919047 Z0.21101 E0.33367
G1 X122.827247 Y89.559584 Z0.213386 E0.189395
G1 X125.859582 Y87.91103 Z0.215762 E0.35803
G1 X126.617454 Y89.658079 Z0.218139 E0.198295
G1 X129.910372 Y88.508842 Z0.220515 E0.364543
G1 X130.434011 Y90.528157 Z0.222891 E0.218869
G1 X133.730478 Y90.051723 Z0.225267 E0.350767
G1 X133.780644 Y92.414009 Z0.227644 E0.249769
G1 X136.794789 Y92.655416 Z0.23002 E0.320834
G1 X136.155019 Y95.293856 Z0.232396 E0.289132
G1 X138.665245 Y96.155087 Z0.234772 E0.28368
G1 X137.22939 Y98.881178 Z0.237149 E0.330568
G1 X139.152031 Y100.164144 Z0.239525 E0.2489
G1 X136.974162 Y102.733659 Z0.241901 E0.364044
G1 X138.385452 Y104.220396 Z0.244277 E0.222362
G1 X135.669509 Y106.419348 Z0.246653 E0.380447
G1 X136.765451 Y107.953108 Z0.24903 E0.205972
G1 X133.797726 Y109.665453 Z0.251406 E0.375727
G1 X134.808152 Y111.196992 Z0.253782 E0.201931
G1 X131.860342 Y112.425052 Z0.256158 E0.35271
G1 X132.953239 Y114.005133 Z0.258535 E0.212958
G1 X130.196448 Y114.835963 Z0.260911 E0.320291
G1 X131.412626 Y116.560194 Z0.263287 E0.23555
G1 X128.877626 Y117.09612 Z0.265663 E0.290275
G1 X130.122305 Y119.030272 Z0.26804 E0.258584
G1 X127.720929 Y119.318244 Z0.270416 E0.272867
G1 X128.814263 Y121.441341 Z0.272792 E0.270369
G1 X126.440881 Y121.45756 Z0.275168 E0.26965
G1 X127.326987 Y123.753012 Z0.277545 E0.280518
G1 X125.090027 Y123.590936 Z0.279921 E0.256583
G1 X125.840979 Y126.162603 Z0.282297 E0.307549
G1 X123.809866 Y125.967061 Z0.284673 E0.23505
G1 X124.390364 Y128.897817 Z0.28705 E0.345339
G1 X122.518509 Y128.75591 Z0.289426 E0.217725
G1 X122.79784 Y132.030363 Z0.291802 E0.382457
G1 X120.964866 Y131.91037 Z0.294178 E0.2145
G1 X120.781056 Y135.377003 Z0.296554 E0.406749
G1 X118.869831 Y135.117638 Z0.298931 E0.226749
G1 X118.111291 Y138.508994 Z0.301307 E0.409923
G1 X116.083363 Y137.867718 Z0.303683 E0.251727
G1 X114.749965 Y140.873985 Z0.306059 E0.390529
G1 X112.68418 Y139.616738 Z0.308436 E0.288124
G1 X110.899436 Y141.984007 Z0.310812 E0.354394
G1 X108.975627 Y139.979753 Z0.313188 E0.333194
G1 X106.944215 Y141.592474 Z0.315564 E0.312103
G1 X105.379184 Y138.872804 Z0.317941 E0.378812
G1 X103.309128 Y139.785908 Z0.320317 E0.274033
G1 X102.274042 Y136.544317 Z0.322693 E0.413495
G1 X100.299018 Y136.951584 Z0.325069 E0.245841
G1 X99.855879 Y133.482521 Z0.327446 E0.427732
G1 X97.993057 Y133.634811 Z0.329822 E0.229331
G1 X98.079199 Y130.238119 Z0.332198 E0.418252
G1 X96.241725 Y130.346103 Z0.334574 E0.227302
G1 X96.709322 Y127.236626 Z0.33695 E0.389551
G1 X94.767426 Y127.398442 Z0.339327 E0.242177
G1 X95.459683 Y124.657334 Z0.341703 E0.352481
G1 X93.321931 Y124.839706 Z0.344079 E0.268343
G1 X94.150609 Y122.424856 Z0.346455 E0.320326
G1 X91.827214 Y122.502084 Z0.348832 E0.292588
G1 X92.815138 Y120.30877 Z0.351208 E0.303716
G1 X90.42876 Y120.140741 Z0.353584 E0.302988
G1 X91.632889 Y118.109641 Z0.35596 E0.299985
G1 X89.181676 Y117.682407 Z0.358337 E0.317098
G1 X90.440449 Y115.863442 Z0.360713 E0.282782
G1 X87.801898 Y115.173655 Z0.363089 E0.349719
G1 X88.968754 Y113.538969 Z0.365465 E0.258339
G1 X86.108389 Y112.504367 Z0.367842 E0.392453
G1 X87.154054 Y110.964009 Z0.370218 E0.240945
G1 X84.174683 Y109.480879 Z0.372594 E0.432033
G1 X85.209079 Y107.953388 Z0.37497 E0.240206
G1 X82.340973 Y105.97133 Z0.377347 E0.455329
G1 X83.574011 Y104.452886 Z0.379723 E0.256238
G1 X81.108284 Y102.029581 Z0.382099 E0.454255
G1 X82.764624 Y100.627169 Z0.384475 E0.286023
G1 X80.956556 Y97.935196 Z0.386851 E0.428649
G1 X83.179725 Y96.845761 Z0.389228 E0.328234
G1 X82.162177 Y94.125559 Z0.391604 E0.386197
G1 X84.948381 Y93.568177 Z0.39398 E0.378958
G1 X84.691249 Y91.046374 Z0.396356 E0.339078
G1 X87.880412 Y91.176631 Z0.398733 E0.428216
G1 X88.212234 Y88.98553 Z0.401109 E0.298186
G1 X91.539121 Y89.830352 Z0.403485 E0.463215
G1 X92.220207 Y87.964842 Z0.405861 E0.26879
