
;FLAVOR:Marlin
;TIME:0
;Filament used: 0m
;Layer height: 0
;MINX:0
;MINY:0
;MINZ:0
;MAXX:220
;MAXY:220
;MAXZ:250

; Time to print!!!!!
; GCode created with FullControl - tell us what you're printing!
; info@fullcontrol.xyz or tag FullControlXYZ on Twitter/Instagram/LinkedIn/Reddit/TikTok 

G28 ; home axes
M140 S50 ; set bed temp and continue
M105
M104 S200 ; set hotend temp and continue
M190 S50 ; set bed temp and wait
M105
M109 S200  ; set hotend temp and wait
G90 ; absolute coordinates
G21 ; set units to millimeters
M83 ; relative extrusion
M106 S255 ; set fan speed
M220 S100 ; set speed factor override percentage
M221 S100 ; set extrude factor override percentage
;-----
; END OF STARTING PROCEDURE
;-----

;-----
; START OF PRIMER PROCEDURE
;-----
G0 F8000 X0.1 Y20 Z0.3
G1 F1500 Y200 E17.960473
G0 F8000 X0.4
G1 F1500 Y20 E17.960473
G0 F8000 X5
G1 E-2 F2700 ; retract before travel to suppress ooze
G0 X110 Y76.716222 Z0.192
G1 E2 F2700 ; unretract
;-----
; END OF PRIMER PROCEDURE
;-----

G1 F250 X111.800283 Y81.098431 E0.472719
G1 X114.130711 Y76.971622 E0.472894
G1 X115.375589 Y81.531625 E0.47165
G1 X118.210832 Y77.687327 E0.476625
G1 X118.911433 Y82.280346 E0.463594
G1 X122.270291 Y78.667596 E0.492211
G1 X122.517883 Y83.094644 E0.442423
G1 X126.485764 Y79.65576 E0.523918
G1 X126.430378 Y83.786606 E0.412214
G1 X131.08447 Y80.596783 E0.562991
G1 X130.811105 Y84.490265 E0.38945
G1 X136.072206 Y81.817238 E0.588825
G1 X135.46184 Y85.699265 E0.392109
G1 X141.005693 Y83.891698 E0.581829
G1 X139.726701 Y87.975562 E0.427006
G1 X145.073543 Y87.248817 E0.538416
G1 X142.759908 Y91.536265 E0.486117
G1 X147.514972 Y91.830952 E0.475372
G1 X144.019938 Y96.0632 E0.547677
G1 X148.090904 Y97.097402 E0.419105
G1 X143.618091 Y100.898597 E0.585696
G1 X147.233895 Y102.367707 E0.389429
G1 X142.235229 Y105.458273 E0.586402
G1 X145.747994 Y107.214541 E0.391872
G1 X140.668012 Y109.522999 E0.556764
G1 X144.296983 Y111.601367 E0.417281
G1 X139.364108 Y113.209474 E0.517698
G1 X143.076506 Y115.714482 E0.446867
G1 X138.285561 Y116.721012 E0.488478
G1 X141.876377 Y119.703439 E0.46576
G1 X137.131927 Y120.14154 E0.475417
G1 X140.392896 Y123.569565 E0.472092
G1 X135.656702 Y123.426552 E0.472795
G1 X138.473329 Y127.235992 E0.472724
G1 X133.792357 Y126.506868 E0.472701
G1 X136.117454 Y130.638783 E0.473077
G1 X131.577067 Y129.347211 E0.471015
G1 X133.408685 Y133.775608 E0.478171
G1 X129.134786 Y132.019737 E0.461038
G1 X130.510033 Y136.801045 E0.496423
G1 X126.621342 Y134.771212 E0.437695
G1 X127.533081 Y140.007844 E0.530374
G1 X124.045222 Y137.886188 E0.407351
G1 X124.369558 Y143.577959 E0.568849
G1 X121.172375 Y141.368813 E0.387763
G1 X120.714019 Y147.266984 E0.590296
G1 X117.679959 Y144.71302 E0.395718
G1 X116.323901 Y150.333423 E0.576898
G1 X113.465814 Y147.033293 E0.435613
G1 X111.302752 Y151.869045 E0.528585
G1 X108.831794 Y147.544884 E0.496942
G1 X106.131069 Y151.340725 E0.464835
G1 X104.346228 Y146.059385 E0.556254
G1 X101.385493 Y148.937128 E0.411978
G1 X100.481332 Y143.109147 E0.588475
G1 X97.376095 Y145.444292 E0.387675
G1 X97.332536 Y139.600604 E0.583102
G1 X94.008706 Y141.75003 E0.394957
G1 X94.64944 Y136.272462 E0.55028
G1 X90.968131 Y138.363681 E0.422452
G1 X92.119173 Y133.365387 E0.511785
G1 X88.0275 Y135.285293 E0.450979
G1 X89.626558 Y130.692788 E0.485225
G1 X85.201903 Y132.235367 E0.467555
G1 X87.2769 Y127.956465 E0.474504
G1 X82.653096 Y128.972972 E0.472382
G1 X85.227659 Y124.995643 E0.472748
G1 X80.510188 Y125.432478 E0.472725
G1 X83.557507 Y121.805823 E0.472656
G1 X78.815661 Y121.656276 E0.473379
G1 X82.262367 Y118.44357 E0.470147
G1 X77.505375 Y117.721139 E0.480097
G1 X81.186593 Y114.977965 E0.458082
G1 X76.33525 Y113.679531 E0.501107
G1 X80.024563 Y111.399589 E0.432743
G1 X75.006258 Y109.455718 E0.536982
G1 X78.565186 Y107.550621 E0.402789
G1 X73.480828 Y104.854694 E0.574225
G1 X77.004237 Y103.236449 E0.386874
G1 X72.205985 Y99.768052 E0.590756
G1 X76.006657 Y98.485376 E0.400247
G1 X71.976718 Y94.423167 E0.570949
G1 X76.378668 Y93.716698 E0.444849
G1 X73.47122 Y89.4121 E0.518309
G1 X78.55598 Y89.603183 E0.507718
G1 X76.797167 Y85.400105 E0.454623
G1 X82.303599 Y86.678283 E0.564042
G1 X81.408511 Y82.712333 E0.405678
G1 X86.865693 Y84.992961 E0.590158
G1 X86.454112 Y81.138036 E0.386832
G1 X91.436616 Y84.112547 E0.579011
G1 X91.271986 Y80.120907 E0.398626
G1 X95.579532 Y83.457211 E0.543651
G1 X95.657151 Y79.172148 E0.427635
G1 X99.307284 Y82.695962 E0.506239
G1 X99.764485 Y78.161695 E0.454725
G1 X102.854634 Y81.880328 E0.482438
G1 X103.821684 Y77.280495 E0.469007
G1 X106.406171 Y81.264433 E0.47384
G1 X107.930756 Y76.780546 E0.472559
G1 X110 Y77.716222 E0.226597
G1 X111.738113 Y82.096497 E0.470217
G1 X114.006613 Y77.963892 E0.470394
G1 X115.190041 Y82.51426 E0.469141
G1 X117.964553 Y78.656526 E0.474141
G1 X118.605376 Y83.232359 E0.461034
G1 X121.90564 Y79.598741 E0.489788
G1 X122.096048 Y84.001317 E0.439701
G1 X126.008377 Y80.534453 E0.52159
G1 X125.899287 Y84.63392 E0.409191
G1 X130.501729 Y81.409441 E0.560724
G1 X130.178969 Y85.265122 E0.386067
G1 X135.39312 Y82.551296 E0.586521
G1 X134.738431 Y86.389685 E0.388527
G1 X140.240761 Y84.535808 E0.57935
G1 X138.923205 Y88.570871 E0.42354
G1 X144.23459 Y87.793021 E0.535625
G1 X141.888745 Y92.027259 E0.483001
G1 X146.614969 Y92.266836 E0.47219
G1 X143.094577 Y96.442288 E0.544947
G1 X147.143766 Y97.418228 E0.415599
G1 X142.65284 Y101.159919 E0.583256
G1 X146.254264 Y102.568514 E0.38586
G1 X141.245009 Y105.597788 E0.584113
G1 X144.751016 Y107.292225 E0.388544
G1 X139.668133 Y109.538551 E0.554493
G1 X143.298071 Y111.554727 E0.414316
G1 X138.370028 Y113.100822 E0.515354
G1 X142.091104 Y115.544238 E0.444182
G1 X137.312649 Y116.489835 E0.486042
G1 X140.919719 Y119.412224 E0.463215
G1 X136.195224 Y119.791413 E0.472928
G1 X139.479773 Y123.161882 E0.469587
G1 X134.770691 Y122.962888 E0.470293
G1 X137.617857 Y126.718142 E0.470222
G1 X132.970735 Y125.936836 E0.4702
G1 X135.33286 Y130.018774 E0.470577
G1 X130.832537 Y128.679623 E0.468503
G1 X132.707098 Y133.063024 E0.475694
G1 X128.478857 Y131.264914 E0.45846
G1 X129.902301 Y136.006904 E0.494015
G1 X126.064157 Y133.940824 E0.434933
G1 X127.028599 Y139.144422 E0.52806
G1 X123.595393 Y136.993073 E0.404267
G1 X123.976125 Y142.658606 E0.566584
G1 X120.836858 Y140.426779 E0.38433
G1 X120.437717 Y146.305913 E0.587973
G1 X117.463941 Y143.73663 E0.392133
G1 X116.169002 Y149.345493 E0.574376
G1 X113.372634 Y146.037644 E0.432195
G1 X111.271652 Y150.869529 E0.525732
G1 X108.862894 Y146.545367 E0.493893
G1 X106.224248 Y150.345075 E0.461588
G1 X104.501127 Y145.071455 E0.553581
G1 X101.601511 Y147.960739 E0.408439
G1 X100.757634 Y142.148076 E0.58607
G1 X97.711611 Y144.502258 E0.384128
G1 X97.725969 Y138.681251 E0.580824
G1 X94.458535 Y140.856915 E0.391689
G1 X95.153922 Y135.409041 E0.548002
G1 X91.525317 Y137.533293 E0.419543
G1 X92.726905 Y132.571245 E0.509425
G1 X88.683429 Y134.53047 E0.448327
G1 X90.328145 Y129.980204 E0.482776
G1 X85.946434 Y131.567779 E0.465021
G1 X88.061494 Y127.336455 E0.472011
G1 X83.474719 Y128.40294 E0.469879
G1 X86.08313 Y124.477793 E0.470246
G1 X81.396199 Y124.968814 E0.470223
G1 X84.47063 Y121.398139 E0.470154
G1 X79.752363 Y121.306149 E0.47088
G1 X83.219025 Y118.152356 E0.46763
G1 X78.478287 Y117.489963 E0.477628
G1 X82.171996 Y114.807721 E0.455483
G1 X77.32933 Y113.570879 E0.498714
G1 X81.023475 Y111.352949 E0.429936
G1 X76.006137 Y109.47127 E0.534681
G1 X79.562164 Y107.628305 E0.399643
G1 X74.471048 Y104.994209 E0.57196
G1 X77.983868 Y103.437256 E0.383396
G1 X73.171236 Y100.029374 E0.588409
G1 X76.953795 Y98.806202 E0.396668
G1 X72.902078 Y94.802255 E0.568381
G1 X77.278671 Y94.152583 E0.441483
G1 X74.342383 Y89.903094 E0.515392
G1 X79.394933 Y90.147387 E0.504734
G1 X77.600664 Y85.995413 E0.451315
G1 X83.068532 Y87.322393 E0.561423
G1 X82.131919 Y83.402753 E0.402114
G1 X87.54478 Y85.72702 E0.587784
G1 X87.086249 Y81.912894 E0.383315
G1 X92.019357 Y84.925205 E0.576741
G1 X91.803078 Y80.968222 E0.395419
G1 X96.056918 Y84.335904 E0.541362
G1 X96.078986 Y80.078821 E0.424779
G1 X99.671935 Y83.627106 E0.503863
G1 X100.070543 Y79.113709 E0.452102
G1 X103.100912 Y82.849527 E0.479979
G1 X104.007232 Y78.26313 E0.466482
G1 X106.53027 Y82.256703 E0.471343
G1 X107.992925 Y77.778611 E0.470056
G1 X110 Y78.716222 E0.221041
G1 X111.675943 Y83.094562 E0.467784
G1 X113.882514 Y78.956162 E0.467962
G1 X115.004493 Y83.496895 E0.466703
G1 X117.718274 Y79.625725 E0.471726
G1 X118.299319 Y84.184372 E0.458544
G1 X121.540988 Y80.529885 E0.487432
G1 X121.674213 Y84.907989 E0.437051
G1 X125.530991 Y81.413147 E0.519325
G1 X125.368196 Y85.481235 E0.40624
G1 X129.918988 Y82.222099 E0.558518
G1 X129.546832 Y86.039979 E0.382755
G1 X134.714034 Y83.285355 E0.584273
G1 X134.015022 Y87.080105 E0.385012
G1 X139.475828 Y85.179918 E0.576927
G1 X138.119708 Y89.16618 E0.420138
G1 X143.395637 Y88.337225 E0.532893
G1 X141.017582 Y92.518253 E0.479944
G1 X145.714966 Y92.702721 E0.469068
G1 X142.169217 Y96.821377 E0.542274
G1 X146.196627 Y97.739054 E0.412157
G1 X141.687588 Y101.421241 E0.580872
G1 X145.274633 Y102.769321 E0.382358
G1 X140.254789 Y105.737303 E0.581881
G1 X143.754038 Y107.369908 E0.385289
G1 X138.668253 Y109.554103 E0.552282
G1 X142.299159 Y111.508087 E0.411424
G1 X137.375949 Y112.99217 E0.513074
G1 X141.105702 Y115.373995 E0.441568
G1 X136.339737 Y116.258659 E0.483673
G1 X139.963062 Y119.12101 E0.460738
G1 X135.258522 Y119.441287 E0.470507
G1 X138.566649 Y122.754198 E0.46715
G1 X133.884679 Y122.499224 E0.467861
G1 X136.762386 Y126.200293 E0.467789
G1 X132.149112 Y125.366803 E0.467767
G1 X134.548266 Y129.398764 E0.468146
G1 X130.088006 Y128.012035 E0.46606
G1 X132.005511 Y132.35044 E0.473285
G1 X127.822929 Y130.510091 E0.455953
G1 X129.294568 Y135.212762 E0.491674
G1 X125.506971 Y133.110436 E0.432242
G1 X126.524116 Y138.281 E0.525809
G1 X123.145565 Y136.099958 E0.401256
G1 X123.582691 Y141.739253 E0.564379
G1 X120.501342 Y139.484744 E0.380967
G1 X120.161416 Y145.344842 E0.585706
G1 X117.247924 Y142.760241 E0.388614
G1 X116.014104 Y148.357562 E0.571911
G1 X113.279455 Y145.041994 E0.428839
G1 X111.240552 Y149.870012 E0.522938
G1 X108.893994 Y145.545851 E0.490902
G1 X106.317428 Y149.349426 E0.458402
G1 X104.656025 Y144.083524 E0.550965
G1 X101.817528 Y146.98435 E0.404964
G1 X101.033936 Y141.187005 E0.583721
G1 X98.047128 Y143.560224 E0.380649
G1 X98.119403 Y137.761898 E0.578604
G1 X94.908363 Y139.9638 E0.388492
G1 X95.658405 Y134.545619 E0.545784
G1 X92.082503 Y136.702906 E0.416707
G1 X93.334638 Y131.777104 E0.50713
G1 X89.339357 Y133.775647 E0.445745
G1 X91.029732 Y129.267621 E0.480395
G1 X86.690965 Y130.900191 E0.462557
G1 X88.846088 Y126.716446 E0.469586
G1 X84.296341 Y127.832908 E0.467444
G1 X86.938602 Y123.959944 E0.467814
G1 X82.28221 Y124.505151 E0.467791
G1 X85.383754 Y120.990455 E0.467721
G1 X80.689066 Y120.956023 E0.46845
G1 X84.175683 Y117.861141 E0.465182
G1 X79.451199 Y117.258786 E0.475227
G1 X83.157398 Y114.637478 E0.452954
G1 X78.32341 Y113.462227 E0.496388
G1 X82.022386 Y111.306308 E0.4272
G1 X77.006016 Y109.486822 E0.532443
G1 X80.559142 Y107.705988 E0.39657
G1 X75.461268 Y105.133724 E0.569753
G1 X78.963499 Y103.638064 E0.379987
G1 X74.136488 Y100.290696 E0.586119
G1 X77.900933 Y99.127028 E0.393155
G1 X73.827439 Y95.181344 E0.565868
G1 X78.178674 Y94.588467 E0.43818
G1 X75.213546 Y90.394088 E0.512533
G1 X80.233886 Y90.691591 E0.50181
G1 X78.404161 Y86.590722 E0.448069
G1 X83.833464 Y87.966504 E0.55886
G1 X82.855328 Y84.093173 E0.398615
G1 X88.223866 Y86.461078 E0.585467
G1 X87.718385 Y82.687751 E0.379867
G1 X92.602098 Y85.737863 E0.574529
G1 X92.334169 Y81.815536 E0.392283
G1 X96.534305 Y85.214598 E0.539135
G1 X96.500821 Y80.985493 E0.421995
G1 X100.036587 Y84.55825 E0.501551
G1 X100.3766 Y80.065722 E0.449548
G1 X103.347191 Y83.818726 E0.477587
G1 X104.19278 Y79.245766 E0.464027
G1 X106.654369 Y83.248973 E0.468916
G1 X108.055095 Y78.776677 E0.467623
G1 F250 X110 Y79.716222 E0.215521
G1 X111.614992 Y84.091806 Z0.194376 E0.46723
G1 X113.761363 Y79.946758 Z0.196752 E0.469444
G1 X114.82288 Y84.477537 Z0.199129 E0.469842
G1 X117.478272 Y80.592333 Z0.201505 E0.477
G1 X118.000217 Y85.133894 Z0.203881 E0.465174
G1 X121.186258 Y81.458324 Z0.206257 E0.496887
G1 X121.262677 Y85.812388 Z0.208634 E0.446563
G1 X125.067548 Y82.289889 Z0.21101 E0.533761
G1 X124.851202 Y86.327304 Z0.213386 E0.417813
G1 X129.354705 Y83.034569 Z0.215762 E0.578707
G1 X128.933114 Y86.815628 Z0.218139 E0.396151
G1 X134.058315 Y84.022223 Z0.220515 E0.6101
G1 X133.31459 Y87.774565 Z0.222891 E0.401345
G1 X138.739026 Y85.831174 Z0.225267 E0.606818
G1 X137.343246 Y89.769945 Z0.227644 E0.441729
G1 X142.588529 Y88.893992 Z0.23002 E0.564248
G1 X140.176103 Y93.022829 Z0.232396 E0.50927
G1 X144.848659 Y93.157014 Z0.234772 E0.499672
G1 X141.274219 Y97.219147 Z0.237149 E0.580525
G1 X145.282926 Y98.083833 Z0.239525 E0.441601
G1 X140.751535 Y101.705746 Z0.241901 E0.626968
G1 X144.326502 Y102.998967 Z0.244277 E0.412385
G1 X139.291421 Y105.903855 Z0.246653 E0.632852
G1 X142.785681 Y107.480874 Z0.24903 E0.418881
G1 X137.692383 Y109.600347 Z0.251406 E0.604958
G1 X141.325551 Y111.499248 Z0.253782 E0.451168
G1 X136.402809 Y112.918174 Z0.256158 E0.565853
G1 X140.141876 Y115.24648 Z0.258535 E0.488243
G1 X135.384305 Y116.066537 Z0.260911 E0.537038
G1 X139.023563 Y118.877718 Z0.263287 E0.513365
G1 X134.335144 Y119.134734 Z0.265663 E0.526035
G1 X137.665332 Y122.39945 Z0.26804 E0.524301
G1 X133.006982 Y122.083334 Z0.270416 E0.526769
G1 X135.912376 Y125.739808 Z0.272792 E0.528746
G1 X131.329947 Y124.848143 Z0.275168 E0.53038
G1 X133.761866 Y128.83975 Z0.277545 E0.532877
G1 X129.3393 Y127.398701 Z0.279921 E0.53213
G1 X131.293999 Y131.701654 Z0.282297 E0.542544
G1 X127.155411 Y129.811837 Z0.284673 E0.524084
G1 X128.667834 Y134.484705 Z0.28705 E0.56771
G1 X124.929709 Y132.338826 Z0.289426 E0.499915
G1 X125.990155 Y137.485895 Z0.291802 E0.611584
G1 X122.665513 Y135.268048 Z0.294178 E0.466683
G1 X123.147338 Y140.890385 Z0.296554 E0.661172
G1 X120.123379 Y138.606118 Z0.298931 E0.445535
G1 X119.828775 Y144.455419 Z0.301307 E0.690848
G1 X116.975663 Y141.847875 Z0.303683 E0.457456
G1 X115.787633 Y147.43982 Z0.306059 E0.678856
G1 X113.116407 Y144.107791 Z0.308436 E0.508813
G1 X111.124052 Y148.93529 Z0.310812 E0.624289
G1 X108.844135 Y144.601243 Z0.313188 E0.587334
G1 X106.315014 Y148.409178 Z0.315564 E0.550062
G1 X104.72309 Y143.140657 Z0.317941 E0.66444
G1 X101.932308 Y146.051247 Z0.320317 E0.488399
G1 X101.219696 Y140.259498 Z0.322693 E0.70909
G1 X98.279376 Y142.648394 Z0.325069 E0.461849
G1 X98.422074 Y136.864497 Z0.327446 E0.707615
G1 X95.254467 Y139.087981 Z0.329822 E0.474861
G1 X96.072314 Y133.693016 Z0.332198 E0.671683
G1 X92.535367 Y135.877169 Z0.334574 E0.513349
G1 X93.851256 Y130.982795 Z0.33695 E0.627876
G1 X89.889832 Y133.012581 Z0.339327 E0.553196
G1 X91.639195 Y128.543478 Z0.341703 E0.598356
G1 X87.329152 Y130.210831 Z0.344079 E0.577994
G1 X89.538097 Y126.072893 Z0.346455 E0.588516
G1 X85.012005 Y127.22701 Z0.348832 E0.58789
G1 X87.702405 Y123.406169 Z0.351208 E0.59
G1 X83.064487 Y123.991265 Z0.353584 E0.592057
G1 X86.207794 Y120.534336 Z0.35596 E0.593607
G1 X81.526207 Y120.541318 Z0.358337 E0.596633
G1 X85.047475 Y117.508998 Z0.360713 E0.594056
G1 X80.330463 Y116.948692 Z0.363089 E0.609127
G1 X84.063385 Y114.393526 Z0.365465 E0.58187
G1 X79.230967 Y113.2597 Z0.367842 E0.640425
G1 X82.948075 Y111.171881 Z0.370218 E0.551751
G1 X77.92744 Y109.391767 Z0.372594 E0.691499
G1 X81.489986 Y107.679408 Z0.37497 E0.514676
G1 X76.3827 Y105.143516 Z0.377347 E0.744729
G1 X79.886144 Y103.715895 Z0.379723 E0.495588
G1 X75.045673 Y100.402061 Z0.382099 E0.770776
G1 X78.803778 Y99.306323 Z0.384475 E0.5159
G1 X74.71362 Y95.392557 Z0.386851 E0.748296
G1 X79.051091 Y94.868461 Z0.389228 E0.579243
G1 X76.066146 Y90.705761 Z0.391604 E0.681136
G1 X81.064653 Y91.073328 Z0.39398 E0.66845
G1 X79.211329 Y87.004227 Z0.396356 E0.598102
G1 X84.609804 Y88.450295 Z0.398733 E0.749794
G1 X83.603729 Y84.607557 Z0.401109 E0.534488
G1 X88.932085 Y87.043427 Z0.403485 E0.79064
G1 X88.394584 Y83.297223 Z0.405861 E0.512225
